; generated by PrusaSlicer 2.9.2 on 2025-07-06 at 13:35:29 UTC


; printer_model = MINI
; filament_type = PLA
; filament_abrasive = 0
; nozzle_diameter = 0.4
; nozzle_high_flow = 0
; bed_temperature = 60
; brim_width = 0
; fill_density = 15%
; layer_height = 0.2
; temperature = 215
; ironing = 0
; support_material = 0
; extruder_colour = ""
; max_layer_z = 18.00
; objects_info = {"objects":[{"name":"Shape-Box","polygon":[[99.000,99.000],[81.000,99.000],[81.000,81.000],[99.000,81.000]]}]}
; filament used [mm] = 995.33
; filament used [g] = 2.97
; filament cost = 0.08
; filament used [cm3] = 2.39
; total filament used for wipe tower [g] = 0.00
; estimated printing time (normal mode) = 20m 38s
; estimated printing time (silent mode) = 20m 38s

;
;

;
;

;
;

;
;

M73 P0 R20
M73 Q0 S20
M201 X2500 Y2500 Z400 E5000
M203 X180 Y180 Z12 E80
M204 P2000 R1250 T2500
M205 X8.00 Y8.00 Z2.00 E10.00
M205 S0 T0
M486 S0
M486 AShape-Box
M486 S-1
;TYPE:Custom
M862.3 P "MINI"
G90
M83
M104 S170
M140 S60
M109 R170
M190 S60
M204 T1250
G28
G29
M204 T2500
M104 S215
G92 E0
G1 Y-2 X179 F2400
G1 Z3 F720
M109 S215
; intro line
G1 X170 F1000
G1 Z0.2 F720
G1 X110 E8 F900
G1 X40 E10 F700
G92 E0
M221 S95
G21
G90
M83
M900 K0.2
; ; Filament gcode LA 1.0
M107
;LAYER_CHANGE
;Z:0.2
;HEIGHT:0.2
G1 E-3.2 F4200
M73 P1 R20
M73 Q1 S20
G1 Z.4 F720
G1 X78.827 Y79.637 F9000
G1 Z.2 F720
G1 E3.2 F2400
M204 P600
;TYPE:Skirt/Brim
;WIDTH:0.42
G1 F1200
G1 X79.883 Y78.69 E.04447
G1 X81 Y78.434 E.03593
G1 X99 Y78.434 E.56438
G1 X100.363 Y78.827 E.04448
G1 X101.31 Y79.883 E.04447
G1 X101.566 Y81 E.03593
G1 X101.566 Y99 E.56438
G1 X101.173 Y100.363 E.04448
G1 X100.117 Y101.31 E.04447
G1 X99 Y101.566 E.03593
G1 X81 Y101.566 E.56438
G1 X79.637 Y101.173 E.04448
G1 X78.69 Y100.117 E.04447
G1 X78.434 Y99 E.03593
G1 X78.434 Y81 E.56438
G1 X78.81 Y79.694 E.04261
M204 P1000
G1 X79.184 Y79.811 F9000
M204 P600
G1 F1200
G1 X79.202 Y79.752 E.00193
G1 X80.235 Y78.949 E.04102
G1 X81 Y78.811 E.02437
G1 X99 Y78.811 E.56438
G1 X100.248 Y79.202 E.04101
G1 X101.051 Y80.235 E.04102
G1 X101.189 Y81 E.02437
G1 X101.189 Y99 E.56438
G1 X100.798 Y100.248 E.04101
G1 X99.765 Y101.051 E.04102
G1 X99 Y101.189 E.02437
G1 X81 Y101.189 E.56438
G1 X79.752 Y100.798 E.04101
G1 X78.949 Y99.765 E.04102
G1 X78.811 Y99 E.02437
G1 X78.811 Y81 E.56438
G1 X79.166 Y79.869 E.03717
M73 P2 R20
M73 Q2 S20
M204 P1000
G1 E-2.24 F4200
;WIPE_START
G1 F7200
G1 X79.184 Y79.811 E-.03365
G1 X79.202 Y79.752 E-.03418
G1 X80.235 Y78.949 E-.72507
G1 X80.532 Y78.896 E-.1671
;WIPE_END
G1 Z.4 F720
M486 S0
G1 X98.213 Y98.213 F9000
G1 Z.2 F720
G1 E3.2 F2400
M204 P600
;TYPE:Perimeter
;WIDTH:0.419999
G1 F1200
G1 X81.787 Y98.213 E.51502
G1 X81.787 Y81.787 E.51502
G1 X98.213 Y81.787 E.51502
G1 X98.213 Y90 E.25751
G1 X98.213 Y98.153 E.25563
M204 P1000
G1 X98.59 Y98.59 F9000
M204 P600
;TYPE:External perimeter
G1 F1200
G1 X81.41 Y98.59 E.53867
G1 X81.41 Y81.41 E.53867
G1 X98.59 Y81.41 E.53867
G1 X98.59 Y90 E.26933
G1 X98.59 Y98.53 E.26745
M204 P1000
G1 E-2.24 F4200
;WIPE_START
G1 F7200
G1 X98.59 Y98.59 E-.03325
G1 X96.918 Y98.59 E-.92675
;WIPE_END
G1 Z.4 F720
G1 X98.043 Y82.725 F9000
G1 Z.2 F720
G1 E3.2 F2400
M204 P600
;TYPE:Solid infill
;WIDTH:0.42297
G1 F1200
G1 X97.444 Y82.126 E.02677
G1 X96.907 Y82.126 E.01697
G1 X97.874 Y83.093 E.04322
G1 X97.874 Y83.631 E.017
G1 X96.369 Y82.126 E.06726
G1 X95.832 Y82.126 E.01697
G1 X97.874 Y84.168 E.09126
G1 X97.874 Y84.706 E.017
G1 X95.294 Y82.126 E.1153
G1 X94.757 Y82.126 E.01697
G1 X97.874 Y85.243 E.1393
G1 X97.874 Y85.78 E.01697
G1 X94.22 Y82.126 E.1633
G1 X93.682 Y82.126 E.017
G1 X97.874 Y86.318 E.18734
G1 X97.874 Y86.855 E.01697
G1 X93.145 Y82.126 E.21134
G1 X92.607 Y82.126 E.017
G1 X97.874 Y87.393 E.23539
G1 X97.874 Y87.93 E.01697
G1 X92.07 Y82.126 E.25939
G1 X91.532 Y82.126 E.017
G1 X97.874 Y88.468 E.28343
G1 X97.874 Y89.005 E.01697
G1 X90.995 Y82.126 E.30743
G1 X90.457 Y82.126 E.017
G1 X97.874 Y89.543 E.33147
G1 X97.874 Y90.08 E.01697
M73 P3 R20
M73 Q3 S20
G1 X89.92 Y82.126 E.35547
G1 X89.382 Y82.126 E.017
G1 X97.874 Y90.618 E.37952
G1 X97.874 Y91.155 E.01697
M73 P3 R19
M73 Q3 S19
G1 X88.845 Y82.126 E.40351
G1 X88.307 Y82.126 E.017
G1 X97.874 Y91.693 E.42756
G1 X97.874 Y92.23 E.01697
G1 X87.77 Y82.126 E.45156
G1 X87.232 Y82.126 E.017
G1 X97.874 Y92.768 E.4756
G1 X97.874 Y93.305 E.01697
G1 X86.695 Y82.126 E.4996
G1 X86.157 Y82.126 E.017
G1 X97.874 Y93.843 E.52364
G1 X97.874 Y94.38 E.01697
G1 X85.62 Y82.126 E.54764
G1 X85.082 Y82.126 E.017
G1 X97.874 Y94.918 E.57169
G1 X97.874 Y95.455 E.01697
G1 X84.545 Y82.126 E.59569
G1 X84.008 Y82.126 E.01697
G1 X97.874 Y95.992 E.61968
G1 X97.874 Y96.53 E.017
G1 X83.47 Y82.126 E.64373
G1 X82.933 Y82.126 E.01697
G1 X97.874 Y97.067 E.66773
G1 X97.874 Y97.605 E.017
G1 X82.395 Y82.126 E.69177
G1 X82.126 Y82.126 E.0085
M73 P4 R19
M73 Q4 S19
G1 X82.126 Y82.395 E.0085
G1 X97.605 Y97.874 E.69177
G1 X97.067 Y97.874 E.017
G1 X82.126 Y82.933 E.66773
G1 X82.126 Y83.47 E.01697
G1 X96.53 Y97.874 E.64373
G1 X95.992 Y97.874 E.017
G1 X82.126 Y84.008 E.61968
G1 X82.126 Y84.545 E.01697
G1 X95.455 Y97.874 E.59569
G1 X94.917 Y97.874 E.017
G1 X82.126 Y85.083 E.57164
G1 X82.126 Y85.62 E.01697
G1 X94.38 Y97.874 E.54764
G1 X93.842 Y97.874 E.017
G1 X82.126 Y86.158 E.5236
G1 X82.126 Y86.695 E.01697
G1 X93.305 Y97.874 E.4996
G1 X92.768 Y97.874 E.01697
G1 X82.126 Y87.232 E.4756
G1 X82.126 Y87.77 E.017
G1 X92.23 Y97.874 E.45156
G1 X91.693 Y97.874 E.01697
G1 X82.126 Y88.307 E.42756
G1 X82.126 Y88.845 E.017
G1 X91.155 Y97.874 E.40351
G1 X90.618 Y97.874 E.01697
M73 P5 R19
M73 Q5 S19
G1 X82.126 Y89.382 E.37952
G1 X82.126 Y89.92 E.017
G1 X90.08 Y97.874 E.35547
G1 X89.543 Y97.874 E.01697
G1 X82.126 Y90.457 E.33147
G1 X82.126 Y90.995 E.017
G1 X89.005 Y97.874 E.30743
G1 X88.468 Y97.874 E.01697
G1 X82.126 Y91.532 E.28343
G1 X82.126 Y92.07 E.017
G1 X87.93 Y97.874 E.25939
G1 X87.393 Y97.874 E.01697
G1 X82.126 Y92.607 E.23539
G1 X82.126 Y93.145 E.017
G1 X86.855 Y97.874 E.21134
G1 X86.318 Y97.874 E.01697
G1 X82.126 Y93.682 E.18734
G1 X82.126 Y94.22 E.017
G1 X85.78 Y97.874 E.1633
G1 X85.243 Y97.874 E.01697
G1 X82.126 Y94.757 E.1393
G1 X82.126 Y95.295 E.017
G1 X84.705 Y97.874 E.11526
G1 X84.168 Y97.874 E.01697
G1 X82.126 Y95.832 E.09126
G1 X82.126 Y96.37 E.017
G1 X83.631 Y97.874 E.06724
G1 X83.093 Y97.874 E.017
G1 X82.126 Y96.907 E.04322
G1 X82.126 Y97.444 E.01697
G1 X82.725 Y98.043 E.02677
M204 P1000
M106 S84.15
;LAYER_CHANGE
;Z:0.4
;HEIGHT:0.2
;BEFORE_LAYER_CHANGE
G92 E0.0
;0.4
G1 E-2.24 F4200
;WIPE_START
G1 F7200
G1 X82.126 Y97.444 E-.46944
G1 X82.126 Y96.907 E-.29759
G1 X82.372 Y97.153 E-.19297
;WIPE_END
G1 Z.4 F720
;AFTER_LAYER_CHANGE
;0.4
M486 S-1
G1 Z.6
G1 X82.725 Y101.566 F9000
G1 Z.4 F720
G1 E3.2 F2400
;TYPE:Skirt/Brim
;WIDTH:0.42
G1 X81 Y101.566 E.05409
G1 X79.637 Y101.173 E.04448
G1 X78.69 Y100.117 E.04447
G1 X78.434 Y99 E.03593
G1 X78.434 Y81 E.56438
G1 X78.827 Y79.637 E.04448
G1 X79.883 Y78.69 E.04447
G1 X81 Y78.434 E.03593
G1 X99 Y78.434 E.56438
G1 X100.363 Y78.827 E.04448
G1 X101.31 Y79.883 E.04447
G1 X101.566 Y81 E.03593
G1 X101.566 Y99 E.56438
G1 X101.173 Y100.363 E.04448
G1 X100.117 Y101.31 E.04447
G1 X99 Y101.566 E.03593
G1 X82.785 Y101.566 E.50841
G1 X82.785 Y101.189 F9000
G1 F2400
G1 X81 Y101.189 E.05597
G1 X79.752 Y100.798 E.04101
G1 X78.949 Y99.765 E.04102
G1 X78.811 Y99 E.02437
G1 X78.811 Y81 E.56438
G1 X79.202 Y79.752 E.04101
G1 X80.235 Y78.949 E.04102
G1 X81 Y78.811 E.02437
G1 X99 Y78.811 E.56438
G1 X100.248 Y79.202 E.04101
G1 X101.051 Y80.235 E.04102
G1 X101.189 Y81 E.02437
G1 X101.189 Y99 E.56438
G1 X100.798 Y100.248 E.04101
G1 X99.765 Y101.051 E.04102
G1 X99 Y101.189 E.02437
G1 X82.845 Y101.189 E.50653
G1 E-2.24 F4200
;WIPE_START
G1 F7200
G1 X82.785 Y101.189 E-.03325
G1 X81.113 Y101.189 E-.92675
;WIPE_END
G1 Z.6 F720
M486 S0
G1 X98.368 Y98.368 F9000
G1 Z.4 F720
G1 E3.2 F2400
M204 P900
;TYPE:Perimeter
;WIDTH:0.449999
G1 F2160.787
G1 X81.632 Y98.368 E.56649
G1 F2171.443
G1 X81.632 Y81.632 E.56649
G1 X98.368 Y81.632 E.56649
M73 P6 R19
M73 Q6 S19
G1 F2173.734
G1 X98.368 Y98.308 E.56446
M204 P1000
G1 X98.775 Y98.775 F9000
M204 P800
;TYPE:External perimeter
G1 F1694.619
G1 X98.1 Y98.775 E.02285
G1 F1703.612
G1 X81.9 Y98.775 E.54835
G1 F1695.365
G1 X81.225 Y98.775 E.02285
G1 X81.225 Y98.1 E.02285
G1 F1707.906
G1 X81.225 Y81.9 E.54835
G1 F1695.365
G1 X81.225 Y81.225 E.02285
G1 X81.9 Y81.225 E.02285
G1 F1707.906
G1 X98.1 Y81.225 E.54835
G1 F1695.365
G1 X98.775 Y81.225 E.02285
G1 X98.775 Y81.9 E.02285
G1 F1714.506
G1 X98.775 Y98.1 E.54835
G1 F1700.517
G1 X98.775 Y98.715 E.02082
M204 P1000
G1 E-2.24 F4200
;WIPE_START
G1 F7200
G1 X98.775 Y98.775 E-.03325
G1 X98.1 Y98.775 E-.37406
G1 X97.103 Y98.775 E-.55269
;WIPE_END
G1 Z.6 F720
G1 X82.109 Y82.031 F9000
G1 Z.4 F720
G1 E3.2 F2400
M204 P1500
;TYPE:Solid infill
;WIDTH:0.548766
G1 F4800
G2 X82.093 Y82.093 I-.058 J.018 E.01318
M204 P1000
G1 X81.866 Y82.888 F9000
M204 P1500
;WIDTH:0.38292
G1 F4800
G1 X81.795 Y82.869 E.00208
G2 X81.855 Y82.929 I.04 J.02 E.00315
;WIDTH:0.41646
G1 X81.927 Y82.836 E.00365
;WIDTH:0.449999
G1 X81.998 Y82.743 E.00396
G1 X82.743 Y81.998 E.03566
G1 X82.836 Y81.927 E.00396
;WIDTH:0.41646
G1 X82.929 Y81.855 E.00365
;WIDTH:0.38292
G3 X82.869 Y81.795 I-.02 J-.04 E.00315
G1 X82.94 Y81.814 E.00208
;WIDTH:0.449999
G1 X83.318 Y81.998 E.01423
G1 X81.998 Y83.318 E.06319
G1 X81.998 Y83.894 E.0195
G1 X83.894 Y81.998 E.09076
G1 X84.47 Y81.998 E.0195
G1 X81.998 Y84.47 E.11833
G1 X81.998 Y85.046 E.0195
G1 X85.046 Y81.998 E.14591
G1 X85.621 Y81.998 E.01946
G1 X81.998 Y85.621 E.17343
G1 X81.998 Y86.197 E.0195
G1 X86.197 Y81.998 E.201
G1 X86.773 Y81.998 E.0195
G1 X81.998 Y86.773 E.22858
G1 X81.998 Y87.348 E.01946
G1 X87.348 Y81.998 E.2561
G1 X87.924 Y81.998 E.0195
G1 X81.998 Y87.924 E.28367
G1 X81.998 Y88.5 E.0195
G1 X88.5 Y81.998 E.31125
G1 X89.075 Y81.998 E.01946
G1 X81.998 Y89.075 E.33877
G1 X81.998 Y89.651 E.0195
G1 X89.651 Y81.998 E.36634
G1 X90.227 Y81.998 E.0195
G1 X81.998 Y90.227 E.39392
G1 X81.998 Y90.803 E.0195
G1 X90.803 Y81.998 E.42149
G1 X91.378 Y81.998 E.01946
G1 X81.998 Y91.378 E.44901
G1 X81.998 Y91.954 E.0195
G1 X91.954 Y81.998 E.47659
G1 X92.53 Y81.998 E.0195
G1 X81.998 Y92.53 E.50416
G1 X81.998 Y93.105 E.01946
G1 X93.105 Y81.998 E.53169
G1 X93.681 Y81.998 E.0195
G1 X81.998 Y93.681 E.55926
G1 X81.998 Y94.257 E.0195
G1 X94.257 Y81.998 E.58683
G1 X94.832 Y81.998 E.01946
G1 X81.998 Y94.832 E.61436
G1 X81.998 Y95.408 E.0195
G1 X95.408 Y81.998 E.64193
G1 X95.984 Y81.998 E.0195
G1 X81.998 Y95.984 E.6695
G1 X81.998 Y96.559 E.01946
G1 X96.559 Y81.998 E.69703
G1 X97.135 Y81.998 E.0195
G1 X81.998 Y97.135 E.7246
M204 P1000
G1 X81.944 Y98.116 F9000
M204 P1500
;WIDTH:0.38292
G1 F4800
G3 X81.884 Y98.056 I-.02 J-.04 E.00315
G1 X81.955 Y98.075 E.00208
;WIDTH:0.41646
G1 X81.977 Y97.893 E.00569
;WIDTH:0.449999
G1 X81.998 Y97.711 E.0062
G1 X97.711 Y81.998 E.75217
G1 X98.127 Y81.903 E.01444
;WIDTH:0.38292
G1 X98.056 Y81.884 E.00208
G2 X98.116 Y81.944 I.04 J.02 E.00315
;WIDTH:0.41646
G1 X98.059 Y82.114 E.00557
;WIDTH:0.449999
G1 X98.002 Y82.283 E.00604
G1 X82.283 Y98.002 E.75246
G1 X82.859 Y98.002 E.0195
G1 X98.002 Y82.859 E.72489
G1 X98.002 Y83.435 E.0195
G1 X83.435 Y98.002 E.69731
G1 X84.011 Y98.002 E.0195
G1 X98.002 Y84.011 E.66974
G1 X98.002 Y84.586 E.01946
G1 X84.586 Y98.002 E.64222
G1 X85.162 Y98.002 E.0195
G1 X98.002 Y85.162 E.61464
G1 X98.002 Y85.738 E.0195
G1 X85.738 Y98.002 E.58707
G1 X86.313 Y98.002 E.01946
M73 P7 R19
M73 Q7 S19
G1 X98.002 Y86.313 E.55955
G1 X98.002 Y86.889 E.0195
G1 X86.889 Y98.002 E.53197
G1 X87.465 Y98.002 E.0195
G1 X98.002 Y87.465 E.5044
G1 X98.002 Y88.04 E.01946
G1 X88.04 Y98.002 E.47687
G1 X88.616 Y98.002 E.0195
G1 X98.002 Y88.616 E.4493
G1 X98.002 Y89.192 E.0195
G1 X89.192 Y98.002 E.42173
G1 X89.768 Y98.002 E.0195
G1 X98.002 Y89.768 E.39416
G1 X98.002 Y90.343 E.01946
G1 X90.343 Y98.002 E.36663
G1 X90.919 Y98.002 E.0195
G1 X98.002 Y90.919 E.33906
G1 X98.002 Y91.495 E.0195
G1 X91.495 Y98.002 E.31149
G1 X92.07 Y98.002 E.01946
G1 X98.002 Y92.07 E.28396
G1 X98.002 Y92.646 E.0195
G1 X92.646 Y98.002 E.25639
G1 X93.222 Y98.002 E.0195
G1 X98.002 Y93.222 E.22882
G1 X98.002 Y93.797 E.01946
G1 X93.797 Y98.002 E.20129
G1 X94.373 Y98.002 E.0195
G1 X98.002 Y94.373 E.17372
G1 X98.002 Y94.949 E.0195
G1 X94.949 Y98.002 E.14615
G1 X95.524 Y98.002 E.01946
G1 X98.002 Y95.524 E.11862
G1 X98.216 Y95.933 E.01562
;WIDTH:0.38292
G1 X98.145 Y95.914 E.00208
G2 X98.205 Y95.974 I.04 J.02 E.00315
;WIDTH:0.41646
G1 X98.103 Y96.037 E.00372
;WIDTH:0.449999
G1 X98.002 Y96.1 E.00403
G1 X96.1 Y98.002 E.09105
G1 X96.037 Y98.103 E.00403
;WIDTH:0.41646
G1 X95.974 Y98.205 E.00372
;WIDTH:0.38292
G3 X95.914 Y98.145 I-.02 J-.04 E.00315
G1 X95.985 Y98.164 E.00208
M204 P1000
G1 E-2.24 F4200
;WIPE_START
G1 F7200
G1 X95.914 Y98.145 E-.04073
G2 X95.974 Y98.205 I.04 J.02 E-.06173
G1 X96.037 Y98.103 E-.06644
G1 X96.1 Y98.002 E-.06597
G1 X97.025 Y97.077 E-.72513
;WIPE_END
G1 Z.6 F720
G1 X97.858 Y96.82 F9000
G1 Z.4 F720
G1 E3.2 F2400
M204 P1500
;WIDTH:0.449999
G1 F4800
G1 X96.676 Y98.002 E.05658
G1 X98.002 Y98.002 E.04488
G1 X98.002 Y96.676 E.04488
M204 P1000
M106 S170.85
;LAYER_CHANGE
;Z:0.6
;HEIGHT:0.2
;BEFORE_LAYER_CHANGE
G92 E0.0
;0.6
G1 E-2.24 F4200
;WIPE_START
G1 F7200
G1 X98.002 Y98.002 E-.73482
G1 X97.596 Y98.002 E-.22518
;WIPE_END
G1 Z.6 F720
;AFTER_LAYER_CHANGE
;0.6
M486 S-1
G1 Z.8
G1 X101.566 Y96.676 F9000
G1 Z.6 F720
G1 E3.2 F2400
;TYPE:Skirt/Brim
;WIDTH:0.42
G1 X101.566 Y99 E.07287
G1 X101.173 Y100.363 E.04448
G1 X100.117 Y101.31 E.04447
G1 X99 Y101.566 E.03593
G1 X81 Y101.566 E.56438
G1 X79.637 Y101.173 E.04448
G1 X78.69 Y100.117 E.04447
G1 X78.434 Y99 E.03593
G1 X78.434 Y81 E.56438
G1 X78.827 Y79.637 E.04448
G1 X79.883 Y78.69 E.04447
G1 X81 Y78.434 E.03593
G1 X99 Y78.434 E.56438
G1 X100.363 Y78.827 E.04448
G1 X101.31 Y79.883 E.04447
G1 X101.566 Y81 E.03593
G1 X101.566 Y96.616 E.48963
G1 X101.189 Y96.616 F9000
G1 F2400
G1 X101.189 Y99 E.07475
G1 X100.798 Y100.248 E.04101
G1 X99.765 Y101.051 E.04102
G1 X99 Y101.189 E.02437
G1 X81 Y101.189 E.56438
G1 X79.752 Y100.798 E.04101
G1 X78.949 Y99.765 E.04102
G1 X78.811 Y99 E.02437
G1 X78.811 Y81 E.56438
G1 X79.202 Y79.752 E.04101
G1 X80.235 Y78.949 E.04102
G1 X81 Y78.811 E.02437
G1 X99 Y78.811 E.56438
G1 X100.248 Y79.202 E.04101
G1 X101.051 Y80.235 E.04102
G1 X101.189 Y81 E.02437
G1 X101.189 Y96.556 E.48775
G1 E-2.24 F4200
;WIPE_START
G1 F7200
G1 X101.189 Y96.616 E-.03325
G1 X101.189 Y98.288 E-.92675
;WIPE_END
G1 Z.8 F720
M486 S0
G1 X98.368 Y98.368 F9000
G1 Z.6 F720
G1 E3.2 F2400
M204 P900
;TYPE:Perimeter
;WIDTH:0.449999
G1 X81.632 Y98.368 E.56649
G1 X81.632 Y81.632 E.56649
G1 X98.368 Y81.632 E.56649
G1 X98.368 Y98.308 E.56446
M204 P1000
G1 X98.775 Y98.775 F9000
M204 P800
;TYPE:External perimeter
G1 F1799.998
G1 X81.225 Y98.775 E.59405
G1 X81.225 Y81.225 E.59405
G1 X98.775 Y81.225 E.59405
M73 P8 R18
M73 Q8 S18
G1 X98.775 Y98.715 E.59201
M204 P1000
G1 E-2.24 F4200
;WIPE_START
G1 F7200
G1 X98.775 Y98.775 E-.03325
G1 X97.103 Y98.775 E-.92675
;WIPE_END
G1 Z.8 F720
G1 X82.031 Y97.891 F9000
G1 Z.6 F720
G1 E3.2 F2400
M204 P1500
;TYPE:Solid infill
;WIDTH:0.548766
G1 F4800
G2 X82.093 Y97.907 I.018 J.058 E.01318
M204 P1000
G1 X82.888 Y98.134 F9000
M204 P1500
;WIDTH:0.38292
G1 F4800
G1 X82.869 Y98.205 E.00208
G2 X82.929 Y98.145 I.02 J-.04 E.00315
;WIDTH:0.41646
G1 X82.836 Y98.073 E.00365
;WIDTH:0.449999
G1 X82.743 Y98.002 E.00396
G1 X81.998 Y97.257 E.03566
G1 X81.927 Y97.164 E.00396
;WIDTH:0.41646
G1 X81.855 Y97.071 E.00365
;WIDTH:0.38292
G3 X81.795 Y97.131 I-.04 J.02 E.00315
G1 X81.814 Y97.06 E.00208
;WIDTH:0.449999
G1 X81.998 Y96.682 E.01423
G1 X83.318 Y98.002 E.06319
G1 X83.894 Y98.002 E.0195
G1 X81.998 Y96.106 E.09076
G1 X81.998 Y95.53 E.0195
G1 X84.47 Y98.002 E.11833
G1 X85.046 Y98.002 E.0195
G1 X81.998 Y94.954 E.14591
G1 X81.998 Y94.379 E.01946
G1 X85.621 Y98.002 E.17343
G1 X86.197 Y98.002 E.0195
G1 X81.998 Y93.803 E.201
G1 X81.998 Y93.227 E.0195
G1 X86.773 Y98.002 E.22858
G1 X87.348 Y98.002 E.01946
G1 X81.998 Y92.652 E.2561
G1 X81.998 Y92.076 E.0195
G1 X87.924 Y98.002 E.28367
G1 X88.5 Y98.002 E.0195
G1 X81.998 Y91.5 E.31125
G1 X81.998 Y90.925 E.01946
G1 X89.075 Y98.002 E.33877
