; Prusa PA test sweep (31 K values, K 0.0400..0.1300 step 0.003)
; Generated 2026-04-23 15:15:26 by pa_dev/tools/generate_pa_test.py
; Filament 1.75 mm, nozzle 0.4 mm, line 0.55 mm × 0.2 mm
; Slow 20.0 mm/s · Fast 100.0 mm/s · Layers 3
;
; --- Start sequence ---
M140 S60
M104 S215
G90                  ; absolute XYZ
M83                  ; relative E
G21                  ; mm
M107                 ; part-cooling fan off for first layer
G28                  ; home all axes
G29                  ; bed mesh / MBL (buddy firmware handles profile)
M190 S60     ; wait for bed
M109 S215  ; wait for hotend
M204 P2500 R1500 T3000
; --- M573 baseline pressure capture (pre-print) ---
G1 Z5.000 F600        ; raise Z for safety
G1 X10.000 Y5.000 F3000  ; park near front-left
M573                  ; capture loadcell-derived pressure curve (~5 s)
G1 Z0.200 F600
G1 X20 Y15.500 F7200
G1 X120.0 Y15.500 E4.5733 F1200  ; purge line
G1 E-0.400 F2400  ; retract
G1 X130.0 F7200  ; wipe
; --- Layer 1 / 3  (Z=0.200) ---
G1 Z0.200 F600
; label 0.040 (K=0.0400) row 0
G1 X61.000 Y58.000 F7200
G1 E0.400 F2400  ; unretract (label)
G1 X64.000 Y58.000 E0.1372 F1200
G1 X64.000 Y62.000 E0.1829 F1200
G1 X61.000 Y62.000 E0.1372 F1200
G1 X61.000 Y58.000 E0.1829 F1200
G1 E-0.400 F2400  ; retract (label)
G1 X65.750 Y58.000 F7200
G1 E0.400 F2400  ; unretract (label)
G1 X67.250 Y58.000 E0.0686 F1200
G1 E-0.400 F2400  ; retract (label)
G1 X69.000 Y58.000 F7200
G1 E0.400 F2400  ; unretract (label)
G1 X72.000 Y58.000 E0.1372 F1200
G1 X72.000 Y62.000 E0.1829 F1200
G1 X69.000 Y62.000 E0.1372 F1200
G1 X69.000 Y58.000 E0.1829 F1200
G1 E-0.400 F2400  ; retract (label)
G1 X73.000 Y62.000 F7200
G1 E0.400 F2400  ; unretract (label)
G1 X73.000 Y60.000 E0.0915 F1200
G1 X76.000 Y60.000 E0.1372 F1200
G1 X76.000 Y62.000 E0.0915 F1200
G1 X76.000 Y58.000 E0.1829 F1200
G1 E-0.400 F2400  ; retract (label)
G1 X77.000 Y58.000 F7200
G1 E0.400 F2400  ; unretract (label)
G1 X80.000 Y58.000 E0.1372 F1200
G1 X80.000 Y62.000 E0.1829 F1200
G1 X77.000 Y62.000 E0.1372 F1200
G1 X77.000 Y58.000 E0.1829 F1200
G1 E-0.400 F2400  ; retract (label)
M900 K0.0400  ; row 0  layer 1
G1 X85.000 Y60.000 F7200
G1 E0.400 F2400  ; unretract
G1 X110.000 E1.1433 F1200
G1 X140.000 E1.3720 F6000
G1 X165.000 E1.1433 F1200
G1 E-0.400 F2400  ; retract
M900 K0.0430  ; row 1  layer 1
G1 X85.000 Y63.000 F7200
G1 E0.400 F2400  ; unretract
G1 X110.000 E1.1433 F1200
G1 X140.000 E1.3720 F6000
G1 X165.000 E1.1433 F1200
G1 E-0.400 F2400  ; retract
M900 K0.0460  ; row 2  layer 1
G1 X85.000 Y66.000 F7200
G1 E0.400 F2400  ; unretract
G1 X110.000 E1.1433 F1200
G1 X140.000 E1.3720 F6000
G1 X165.000 E1.1433 F1200
G1 E-0.400 F2400  ; retract
; label 0.049 (K=0.0490) row 3
G1 X61.000 Y67.000 F7200
G1 E0.400 F2400  ; unretract (label)
G1 X64.000 Y67.000 E0.1372 F1200
G1 X64.000 Y71.000 E0.1829 F1200
G1 X61.000 Y71.000 E0.1372 F1200
G1 X61.000 Y67.000 E0.1829 F1200
G1 E-0.400 F2400  ; retract (label)
G1 X65.750 Y67.000 F7200
G1 E0.400 F2400  ; unretract (label)
G1 X67.250 Y67.000 E0.0686 F1200
G1 E-0.400 F2400  ; retract (label)
G1 X69.000 Y67.000 F7200
G1 E0.400 F2400  ; unretract (label)
G1 X72.000 Y67.000 E0.1372 F1200
G1 X72.000 Y71.000 E0.1829 F1200
G1 X69.000 Y71.000 E0.1372 F1200
G1 X69.000 Y67.000 E0.1829 F1200
G1 E-0.400 F2400  ; retract (label)
G1 X73.000 Y71.000 F7200
G1 E0.400 F2400  ; unretract (label)
G1 X73.000 Y69.000 E0.0915 F1200
G1 X76.000 Y69.000 E0.1372 F1200
G1 X76.000 Y71.000 E0.0915 F1200
G1 X76.000 Y67.000 E0.1829 F1200
G1 E-0.400 F2400  ; retract (label)
G1 X77.000 Y67.000 F7200
G1 E0.400 F2400  ; unretract (label)
G1 X80.000 Y67.000 E0.1372 F1200
G1 X80.000 Y71.000 E0.1829 F1200
G1 X77.000 Y71.000 E0.1372 F1200
G1 X77.000 Y69.000 E0.0915 F1200
G1 X80.000 Y69.000 E0.1372 F1200
G1 E-0.400 F2400  ; retract (label)
M900 K0.0490  ; row 3  layer 1
G1 X85.000 Y69.000 F7200
G1 E0.400 F2400  ; unretract
G1 X110.000 E1.1433 F1200
G1 X140.000 E1.3720 F6000
G1 X165.000 E1.1433 F1200
G1 E-0.400 F2400  ; retract
M900 K0.0520  ; row 4  layer 1
G1 X85.000 Y72.000 F7200
G1 E0.400 F2400  ; unretract
G1 X110.000 E1.1433 F1200
G1 X140.000 E1.3720 F6000
G1 X165.000 E1.1433 F1200
G1 E-0.400 F2400  ; retract
M900 K0.0550  ; row 5  layer 1
G1 X85.000 Y75.000 F7200
G1 E0.400 F2400  ; unretract
G1 X110.000 E1.1433 F1200
G1 X140.000 E1.3720 F6000
G1 X165.000 E1.1433 F1200
G1 E-0.400 F2400  ; retract
; label 0.058 (K=0.0580) row 6
G1 X61.000 Y76.000 F7200
G1 E0.400 F2400  ; unretract (label)
G1 X64.000 Y76.000 E0.1372 F1200
G1 X64.000 Y80.000 E0.1829 F1200
G1 X61.000 Y80.000 E0.1372 F1200
G1 X61.000 Y76.000 E0.1829 F1200
G1 E-0.400 F2400  ; retract (label)
G1 X65.750 Y76.000 F7200
G1 E0.400 F2400  ; unretract (label)
G1 X67.250 Y76.000 E0.0686 F1200
G1 E-0.400 F2400  ; retract (label)
G1 X69.000 Y76.000 F7200
G1 E0.400 F2400  ; unretract (label)
G1 X72.000 Y76.000 E0.1372 F1200
G1 X72.000 Y80.000 E0.1829 F1200
G1 X69.000 Y80.000 E0.1372 F1200
G1 X69.000 Y76.000 E0.1829 F1200
G1 E-0.400 F2400  ; retract (label)
G1 X76.000 Y80.000 F7200
G1 E0.400 F2400  ; unretract (label)
G1 X73.000 Y80.000 E0.1372 F1200
G1 X73.000 Y78.000 E0.0915 F1200
G1 X76.000 Y78.000 E0.1372 F1200
G1 X76.000 Y76.000 E0.0915 F1200
G1 X73.000 Y76.000 E0.1372 F1200
G1 E-0.400 F2400  ; retract (label)
G1 X77.000 Y80.000 F7200
G1 E0.400 F2400  ; unretract (label)
G1 X77.000 Y76.000 E0.1829 F1200
G1 X80.000 Y76.000 E0.1372 F1200
G1 X80.000 Y80.000 E0.1829 F1200
G1 X77.000 Y80.000 E0.1372 F1200
G1 X77.000 Y78.000 E0.0915 F1200
G1 X80.000 Y78.000 E0.1372 F1200
G1 E-0.400 F2400  ; retract (label)
M900 K0.0580  ; row 6  layer 1
G1 X85.000 Y78.000 F7200
G1 E0.400 F2400  ; unretract
G1 X110.000 E1.1433 F1200
G1 X140.000 E1.3720 F6000
G1 X165.000 E1.1433 F1200
G1 E-0.400 F2400  ; retract
M900 K0.0610  ; row 7  layer 1
G1 X85.000 Y81.000 F7200
G1 E0.400 F2400  ; unretract
G1 X110.000 E1.1433 F1200
G1 X140.000 E1.3720 F6000
G1 X165.000 E1.1433 F1200
G1 E-0.400 F2400  ; retract
M900 K0.0640  ; row 8  layer 1
G1 X85.000 Y84.000 F7200
G1 E0.400 F2400  ; unretract
G1 X110.000 E1.1433 F1200
G1 X140.000 E1.3720 F6000
G1 X165.000 E1.1433 F1200
G1 E-0.400 F2400  ; retract
; label 0.067 (K=0.0670) row 9
G1 X61.000 Y85.000 F7200
G1 E0.400 F2400  ; unretract (label)
G1 X64.000 Y85.000 E0.1372 F1200
G1 X64.000 Y89.000 E0.1829 F1200
G1 X61.000 Y89.000 E0.1372 F1200
G1 X61.000 Y85.000 E0.1829 F1200
G1 E-0.400 F2400  ; retract (label)
G1 X65.750 Y85.000 F7200
G1 E0.400 F2400  ; unretract (label)
G1 X67.250 Y85.000 E0.0686 F1200
G1 E-0.400 F2400  ; retract (label)
G1 X69.000 Y85.000 F7200
G1 E0.400 F2400  ; unretract (label)
G1 X72.000 Y85.000 E0.1372 F1200
G1 X72.000 Y89.000 E0.1829 F1200
G1 X69.000 Y89.000 E0.1372 F1200
G1 X69.000 Y85.000 E0.1829 F1200
G1 E-0.400 F2400  ; retract (label)
G1 X76.000 Y89.000 F7200
G1 E0.400 F2400  ; unretract (label)
G1 X73.000 Y89.000 E0.1372 F1200
G1 X73.000 Y85.000 E0.1829 F1200
G1 X76.000 Y85.000 E0.1372 F1200
G1 X76.000 Y87.000 E0.0915 F1200
G1 X73.000 Y87.000 E0.1372 F1200
G1 E-0.400 F2400  ; retract (label)
G1 X77.000 Y89.000 F7200
G1 E0.400 F2400  ; unretract (label)
G1 X80.000 Y89.000 E0.1372 F1200
G1 X80.000 Y85.000 E0.1829 F1200
G1 E-0.400 F2400  ; retract (label)
M900 K0.0670  ; row 9  layer 1
G1 X85.000 Y87.000 F7200
G1 E0.400 F2400  ; unretract
G1 X110.000 E1.1433 F1200
G1 X140.000 E1.3720 F6000
G1 X165.000 E1.1433 F1200
G1 E-0.400 F2400  ; retract
M900 K0.0700  ; row 10  layer 1
G1 X85.000 Y90.000 F7200
G1 E0.400 F2400  ; unretract
G1 X110.000 E1.1433 F1200
G1 X140.000 E1.3720 F6000
G1 X165.000 E1.1433 F1200
G1 E-0.400 F2400  ; retract
M900 K0.0730  ; row 11  layer 1
G1 X85.000 Y93.000 F7200
G1 E0.400 F2400  ; unretract
G1 X110.000 E1.1433 F1200
G1 X140.000 E1.3720 F6000
G1 X165.000 E1.1433 F1200
G1 E-0.400 F2400  ; retract
; label 0.076 (K=0.0760) row 12
G1 X61.000 Y94.000 F7200
G1 E0.400 F2400  ; unretract (label)
G1 X64.000 Y94.000 E0.1372 F1200
G1 X64.000 Y98.000 E0.1829 F1200
G1 X61.000 Y98.000 E0.1372 F1200
G1 X61.000 Y94.000 E0.1829 F1200
G1 E-0.400 F2400  ; retract (label)
G1 X65.750 Y94.000 F7200
G1 E0.400 F2400  ; unretract (label)
G1 X67.250 Y94.000 E0.0686 F1200
G1 E-0.400 F2400  ; retract (label)
G1 X69.000 Y94.000 F7200
G1 E0.400 F2400  ; unretract (label)
G1 X72.000 Y94.000 E0.1372 F1200
G1 X72.000 Y98.000 E0.1829 F1200
G1 X69.000 Y98.000 E0.1372 F1200
G1 X69.000 Y94.000 E0.1829 F1200
G1 E-0.400 F2400  ; retract (label)
G1 X73.000 Y98.000 F7200
G1 E0.400 F2400  ; unretract (label)
G1 X76.000 Y98.000 E0.1372 F1200
G1 X76.000 Y94.000 E0.1829 F1200
G1 E-0.400 F2400  ; retract (label)
G1 X80.000 Y98.000 F7200
G1 E0.400 F2400  ; unretract (label)
G1 X77.000 Y98.000 E0.1372 F1200
G1 X77.000 Y94.000 E0.1829 F1200
G1 X80.000 Y94.000 E0.1372 F1200
G1 X80.000 Y96.000 E0.0915 F1200
G1 X77.000 Y96.000 E0.1372 F1200
G1 E-0.400 F2400  ; retract (label)
M900 K0.0760  ; row 12  layer 1
G1 X85.000 Y96.000 F7200
G1 E0.400 F2400  ; unretract
G1 X110.000 E1.1433 F1200
G1 X140.000 E1.3720 F6000
G1 X165.000 E1.1433 F1200
G1 E-0.400 F2400  ; retract
M900 K0.0790  ; row 13  layer 1
G1 X85.000 Y99.000 F7200
G1 E0.400 F2400  ; unretract
G1 X110.000 E1.1433 F1200
G1 X140.000 E1.3720 F6000
G1 X165.000 E1.1433 F1200
G1 E-0.400 F2400  ; retract
M900 K0.0820  ; row 14  layer 1
G1 X85.000 Y102.000 F7200
G1 E0.400 F2400  ; unretract
G1 X110.000 E1.1433 F1200
G1 X140.000 E1.3720 F6000
G1 X165.000 E1.1433 F1200
G1 E-0.400 F2400  ; retract
; label 0.085 (K=0.0850) row 15
G1 X61.000 Y103.000 F7200
G1 E0.400 F2400  ; unretract (label)
G1 X64.000 Y103.000 E0.1372 F1200
G1 X64.000 Y107.000 E0.1829 F1200
G1 X61.000 Y107.000 E0.1372 F1200
G1 X61.000 Y103.000 E0.1829 F1200
G1 E-0.400 F2400  ; retract (label)
G1 X65.750 Y103.000 F7200
G1 E0.400 F2400  ; unretract (label)
G1 X67.250 Y103.000 E0.0686 F1200
G1 E-0.400 F2400  ; retract (label)
G1 X69.000 Y103.000 F7200
G1 E0.400 F2400  ; unretract (label)
G1 X72.000 Y103.000 E0.1372 F1200
G1 X72.000 Y107.000 E0.1829 F1200
G1 X69.000 Y107.000 E0.1372 F1200
G1 X69.000 Y103.000 E0.1829 F1200
G1 E-0.400 F2400  ; retract (label)
G1 X73.000 Y107.000 F7200
G1 E0.400 F2400  ; unretract (label)
G1 X73.000 Y103.000 E0.1829 F1200
G1 X76.000 Y103.000 E0.1372 F1200
G1 X76.000 Y107.000 E0.1829 F1200
G1 X73.000 Y107.000 E0.1372 F1200
G1 X73.000 Y105.000 E0.0915 F1200
G1 X76.000 Y105.000 E0.1372 F1200
G1 E-0.400 F2400  ; retract (label)
G1 X80.000 Y107.000 F7200
G1 E0.400 F2400  ; unretract (label)
G1 X77.000 Y107.000 E0.1372 F1200
G1 X77.000 Y105.000 E0.0915 F1200
G1 X80.000 Y105.000 E0.1372 F1200
G1 X80.000 Y103.000 E0.0915 F1200
G1 X77.000 Y103.000 E0.1372 F1200
G1 E-0.400 F2400  ; retract (label)
M900 K0.0850  ; row 15  layer 1
G1 X85.000 Y105.000 F7200
G1 E0.400 F2400  ; unretract
G1 X110.000 E1.1433 F1200
G1 X140.000 E1.3720 F6000
G1 X165.000 E1.1433 F1200
G1 E-0.400 F2400  ; retract
M900 K0.0880  ; row 16  layer 1
G1 X85.000 Y108.000 F7200
G1 E0.400 F2400  ; unretract
G1 X110.000 E1.1433 F1200
G1 X140.000 E1.3720 F6000
G1 X165.000 E1.1433 F1200
G1 E-0.400 F2400  ; retract
M900 K0.0910  ; row 17  layer 1
G1 X85.000 Y111.000 F7200
G1 E0.400 F2400  ; unretract
G1 X110.000 E1.1433 F1200
G1 X140.000 E1.3720 F6000
G1 X165.000 E1.1433 F1200
G1 E-0.400 F2400  ; retract
; label 0.094 (K=0.0940) row 18
G1 X61.000 Y112.000 F7200
G1 E0.400 F2400  ; unretract (label)
G1 X64.000 Y112.000 E0.1372 F1200
G1 X64.000 Y116.000 E0.1829 F1200
G1 X61.000 Y116.000 E0.1372 F1200
G1 X61.000 Y112.000 E0.1829 F1200
G1 E-0.400 F2400  ; retract (label)
G1 X65.750 Y112.000 F7200
G1 E0.400 F2400  ; unretract (label)
G1 X67.250 Y112.000 E0.0686 F1200
G1 E-0.400 F2400  ; retract (label)
G1 X69.000 Y112.000 F7200
G1 E0.400 F2400  ; unretract (label)
G1 X72.000 Y112.000 E0.1372 F1200
G1 X72.000 Y116.000 E0.1829 F1200
G1 X69.000 Y116.000 E0.1372 F1200
G1 X69.000 Y112.000 E0.1829 F1200
G1 E-0.400 F2400  ; retract (label)
G1 X73.000 Y112.000 F7200
G1 E0.400 F2400  ; unretract (label)
G1 X76.000 Y112.000 E0.1372 F1200
G1 X76.000 Y116.000 E0.1829 F1200
G1 X73.000 Y116.000 E0.1372 F1200
G1 X73.000 Y114.000 E0.0915 F1200
G1 X76.000 Y114.000 E0.1372 F1200
G1 E-0.400 F2400  ; retract (label)
G1 X77.000 Y116.000 F7200
G1 E0.400 F2400  ; unretract (label)
G1 X77.000 Y114.000 E0.0915 F1200
G1 X80.000 Y114.000 E0.1372 F1200
G1 X80.000 Y116.000 E0.0915 F1200
G1 X80.000 Y112.000 E0.1829 F1200
G1 E-0.400 F2400  ; retract (label)
M900 K0.0940  ; row 18  layer 1
G1 X85.000 Y114.000 F7200
G1 E0.400 F2400  ; unretract
G1 X110.000 E1.1433 F1200
G1 X140.000 E1.3720 F6000
G1 X165.000 E1.1433 F1200
G1 E-0.400 F2400  ; retract
M900 K0.0970  ; row 19  layer 1
G1 X85.000 Y117.000 F7200
G1 E0.400 F2400  ; unretract
G1 X110.000 E1.1433 F1200
G1 X140.000 E1.3720 F6000
G1 X165.000 E1.1433 F1200
G1 E-0.400 F2400  ; retract
M900 K0.1000  ; row 20  layer 1
G1 X85.000 Y120.000 F7200
G1 E0.400 F2400  ; unretract
G1 X110.000 E1.1433 F1200
G1 X140.000 E1.3720 F6000
G1 X165.000 E1.1433 F1200
G1 E-0.400 F2400  ; retract
; label 0.103 (K=0.1030) row 21
G1 X61.000 Y121.000 F7200
G1 E0.400 F2400  ; unretract (label)
G1 X64.000 Y121.000 E0.1372 F1200
G1 X64.000 Y125.000 E0.1829 F1200
G1 X61.000 Y125.000 E0.1372 F1200
G1 X61.000 Y121.000 E0.1829 F1200
G1 E-0.400 F2400  ; retract (label)
G1 X65.750 Y121.000 F7200
G1 E0.400 F2400  ; unretract (label)
G1 X67.250 Y121.000 E0.0686 F1200
G1 E-0.400 F2400  ; retract (label)
G1 X69.000 Y121.000 F7200
G1 E0.400 F2400  ; unretract (label)
G1 X72.000 Y121.000 E0.1372 F1200
G1 X70.500 Y121.000 E0.0686 F1200
G1 X70.500 Y125.000 E0.1829 F1200
G1 X69.000 Y124.000 E0.0824 F1200
G1 E-0.400 F2400  ; retract (label)
G1 X73.000 Y121.000 F7200
G1 E0.400 F2400  ; unretract (label)
G1 X76.000 Y121.000 E0.1372 F1200
G1 X76.000 Y125.000 E0.1829 F1200
G1 X73.000 Y125.000 E0.1372 F1200
G1 X73.000 Y121.000 E0.1829 F1200
G1 E-0.400 F2400  ; retract (label)
G1 X77.000 Y125.000 F7200
G1 E0.400 F2400  ; unretract (label)
G1 X80.000 Y125.000 E0.1372 F1200
G1 X80.000 Y123.000 E0.0915 F1200
G1 X77.000 Y123.000 E0.1372 F1200
G1 X80.000 Y123.000 E0.1372 F1200
G1 X80.000 Y121.000 E0.0915 F1200
G1 X77.000 Y121.000 E0.1372 F1200
G1 E-0.400 F2400  ; retract (label)
M900 K0.1030  ; row 21  layer 1
G1 X85.000 Y123.000 F7200
G1 E0.400 F2400  ; unretract
G1 X110.000 E1.1433 F1200
G1 X140.000 E1.3720 F6000
G1 X165.000 E1.1433 F1200
G1 E-0.400 F2400  ; retract
M900 K0.1060  ; row 22  layer 1
G1 X85.000 Y126.000 F7200
G1 E0.400 F2400  ; unretract
G1 X110.000 E1.1433 F1200
G1 X140.000 E1.3720 F6000
G1 X165.000 E1.1433 F1200
G1 E-0.400 F2400  ; retract
M900 K0.1090  ; row 23  layer 1
G1 X85.000 Y129.000 F7200
G1 E0.400 F2400  ; unretract
G1 X110.000 E1.1433 F1200
G1 X140.000 E1.3720 F6000
G1 X165.000 E1.1433 F1200
G1 E-0.400 F2400  ; retract
; label 0.112 (K=0.1120) row 24
G1 X61.000 Y130.000 F7200
G1 E0.400 F2400  ; unretract (label)
G1 X64.000 Y130.000 E0.1372 F1200
G1 X64.000 Y134.000 E0.1829 F1200
G1 X61.000 Y134.000 E0.1372 F1200
G1 X61.000 Y130.000 E0.1829 F1200
G1 E-0.400 F2400  ; retract (label)
G1 X65.750 Y130.000 F7200
G1 E0.400 F2400  ; unretract (label)
G1 X67.250 Y130.000 E0.0686 F1200
G1 E-0.400 F2400  ; retract (label)
G1 X69.000 Y130.000 F7200
G1 E0.400 F2400  ; unretract (label)
G1 X72.000 Y130.000 E0.1372 F1200
G1 X70.500 Y130.000 E0.0686 F1200
G1 X70.500 Y134.000 E0.1829 F1200
G1 X69.000 Y133.000 E0.0824 F1200
G1 E-0.400 F2400  ; retract (label)
G1 X73.000 Y130.000 F7200
G1 E0.400 F2400  ; unretract (label)
G1 X76.000 Y130.000 E0.1372 F1200
G1 X74.500 Y130.000 E0.0686 F1200
G1 X74.500 Y134.000 E0.1829 F1200
G1 X73.000 Y133.000 E0.0824 F1200
G1 E-0.400 F2400  ; retract (label)
G1 X77.000 Y134.000 F7200
G1 E0.400 F2400  ; unretract (label)
G1 X80.000 Y134.000 E0.1372 F1200
G1 X80.000 Y132.000 E0.0915 F1200
G1 X77.000 Y132.000 E0.1372 F1200
G1 X77.000 Y130.000 E0.0915 F1200
G1 X80.000 Y130.000 E0.1372 F1200
G1 E-0.400 F2400  ; retract (label)
M900 K0.1120  ; row 24  layer 1
G1 X85.000 Y132.000 F7200
G1 E0.400 F2400  ; unretract
G1 X110.000 E1.1433 F1200
G1 X140.000 E1.3720 F6000
G1 X165.000 E1.1433 F1200
G1 E-0.400 F2400  ; retract
M900 K0.1150  ; row 25  layer 1
G1 X85.000 Y135.000 F7200
G1 E0.400 F2400  ; unretract
G1 X110.000 E1.1433 F1200
G1 X140.000 E1.3720 F6000
G1 X165.000 E1.1433 F1200
G1 E-0.400 F2400  ; retract
M900 K0.1180  ; row 26  layer 1
G1 X85.000 Y138.000 F7200
G1 E0.400 F2400  ; unretract
G1 X110.000 E1.1433 F1200
G1 X140.000 E1.3720 F6000
G1 X165.000 E1.1433 F1200
G1 E-0.400 F2400  ; retract
; label 0.121 (K=0.1210) row 27
G1 X61.000 Y139.000 F7200
G1 E0.400 F2400  ; unretract (label)
G1 X64.000 Y139.000 E0.1372 F1200
G1 X64.000 Y143.000 E0.1829 F1200
G1 X61.000 Y143.000 E0.1372 F1200
G1 X61.000 Y139.000 E0.1829 F1200
G1 E-0.400 F2400  ; retract (label)
G1 X65.750 Y139.000 F7200
G1 E0.400 F2400  ; unretract (label)
G1 X67.250 Y139.000 E0.0686 F1200
G1 E-0.400 F2400  ; retract (label)
G1 X69.000 Y139.000 F7200
G1 E0.400 F2400  ; unretract (label)
G1 X72.000 Y139.000 E0.1372 F1200
G1 X70.500 Y139.000 E0.0686 F1200
G1 X70.500 Y143.000 E0.1829 F1200
G1 X69.000 Y142.000 E0.0824 F1200
G1 E-0.400 F2400  ; retract (label)
G1 X73.000 Y143.000 F7200
G1 E0.400 F2400  ; unretract (label)
G1 X76.000 Y143.000 E0.1372 F1200
G1 X76.000 Y141.000 E0.0915 F1200
G1 X73.000 Y141.000 E0.1372 F1200
G1 X73.000 Y139.000 E0.0915 F1200
G1 X76.000 Y139.000 E0.1372 F1200
G1 E-0.400 F2400  ; retract (label)
G1 X77.000 Y139.000 F7200
G1 E0.400 F2400  ; unretract (label)
G1 X80.000 Y139.000 E0.1372 F1200
G1 X78.500 Y139.000 E0.0686 F1200
G1 X78.500 Y143.000 E0.1829 F1200
G1 X77.000 Y142.000 E0.0824 F1200
G1 E-0.400 F2400  ; retract (label)
M900 K0.1210  ; row 27  layer 1
G1 X85.000 Y141.000 F7200
G1 E0.400 F2400  ; unretract
G1 X110.000 E1.1433 F1200
G1 X140.000 E1.3720 F6000
G1 X165.000 E1.1433 F1200
G1 E-0.400 F2400  ; retract
M900 K0.1240  ; row 28  layer 1
G1 X85.000 Y144.000 F7200
G1 E0.400 F2400  ; unretract
G1 X110.000 E1.1433 F1200
G1 X140.000 E1.3720 F6000
G1 X165.000 E1.1433 F1200
G1 E-0.400 F2400  ; retract
M900 K0.1270  ; row 29  layer 1
G1 X85.000 Y147.000 F7200
G1 E0.400 F2400  ; unretract
G1 X110.000 E1.1433 F1200
G1 X140.000 E1.3720 F6000
G1 X165.000 E1.1433 F1200
G1 E-0.400 F2400  ; retract
; label 0.130 (K=0.1300) row 30
G1 X61.000 Y148.000 F7200
G1 E0.400 F2400  ; unretract (label)
G1 X64.000 Y148.000 E0.1372 F1200
G1 X64.000 Y152.000 E0.1829 F1200
G1 X61.000 Y152.000 E0.1372 F1200
G1 X61.000 Y148.000 E0.1829 F1200
G1 E-0.400 F2400  ; retract (label)
G1 X65.750 Y148.000 F7200
G1 E0.400 F2400  ; unretract (label)
G1 X67.250 Y148.000 E0.0686 F1200
G1 E-0.400 F2400  ; retract (label)
G1 X69.000 Y148.000 F7200
G1 E0.400 F2400  ; unretract (label)
G1 X72.000 Y148.000 E0.1372 F1200
G1 X70.500 Y148.000 E0.0686 F1200
G1 X70.500 Y152.000 E0.1829 F1200
G1 X69.000 Y151.000 E0.0824 F1200
G1 E-0.400 F2400  ; retract (label)
G1 X73.000 Y152.000 F7200
G1 E0.400 F2400  ; unretract (label)
G1 X76.000 Y152.000 E0.1372 F1200
G1 X76.000 Y150.000 E0.0915 F1200
G1 X73.000 Y150.000 E0.1372 F1200
G1 X76.000 Y150.000 E0.1372 F1200
G1 X76.000 Y148.000 E0.0915 F1200
G1 X73.000 Y148.000 E0.1372 F1200
G1 E-0.400 F2400  ; retract (label)
G1 X77.000 Y148.000 F7200
G1 E0.400 F2400  ; unretract (label)
G1 X80.000 Y148.000 E0.1372 F1200
G1 X80.000 Y152.000 E0.1829 F1200
G1 X77.000 Y152.000 E0.1372 F1200
G1 X77.000 Y148.000 E0.1829 F1200
G1 E-0.400 F2400  ; retract (label)
M900 K0.1300  ; row 30  layer 1
G1 X85.000 Y150.000 F7200
G1 E0.400 F2400  ; unretract
G1 X110.000 E1.1433 F1200
G1 X140.000 E1.3720 F6000
G1 X165.000 E1.1433 F1200
G1 E-0.400 F2400  ; retract
; --- Layer 2 / 3  (Z=0.400) ---
G1 Z0.400 F600
M900 K0.1300  ; row 30  layer 2
G1 X165.000 Y150.000 F7200
G1 E0.400 F2400  ; unretract
G1 X140.000 E1.1433 F1200
G1 X110.000 E1.3720 F6000
G1 X85.000 E1.1433 F1200
G1 E-0.400 F2400  ; retract
M900 K0.1270  ; row 29  layer 2
G1 X165.000 Y147.000 F7200
G1 E0.400 F2400  ; unretract
G1 X140.000 E1.1433 F1200
G1 X110.000 E1.3720 F6000
G1 X85.000 E1.1433 F1200
G1 E-0.400 F2400  ; retract
M900 K0.1240  ; row 28  layer 2
G1 X165.000 Y144.000 F7200
G1 E0.400 F2400  ; unretract
G1 X140.000 E1.1433 F1200
G1 X110.000 E1.3720 F6000
G1 X85.000 E1.1433 F1200
G1 E-0.400 F2400  ; retract
M900 K0.1210  ; row 27  layer 2
G1 X165.000 Y141.000 F7200
G1 E0.400 F2400  ; unretract
G1 X140.000 E1.1433 F1200
G1 X110.000 E1.3720 F6000
G1 X85.000 E1.1433 F1200
G1 E-0.400 F2400  ; retract
M900 K0.1180  ; row 26  layer 2
G1 X165.000 Y138.000 F7200
G1 E0.400 F2400  ; unretract
G1 X140.000 E1.1433 F1200
G1 X110.000 E1.3720 F6000
G1 X85.000 E1.1433 F1200
G1 E-0.400 F2400  ; retract
M900 K0.1150  ; row 25  layer 2
G1 X165.000 Y135.000 F7200
G1 E0.400 F2400  ; unretract
G1 X140.000 E1.1433 F1200
G1 X110.000 E1.3720 F6000
G1 X85.000 E1.1433 F1200
G1 E-0.400 F2400  ; retract
M900 K0.1120  ; row 24  layer 2
G1 X165.000 Y132.000 F7200
G1 E0.400 F2400  ; unretract
G1 X140.000 E1.1433 F1200
G1 X110.000 E1.3720 F6000
G1 X85.000 E1.1433 F1200
G1 E-0.400 F2400  ; retract
M900 K0.1090  ; row 23  layer 2
G1 X165.000 Y129.000 F7200
G1 E0.400 F2400  ; unretract
G1 X140.000 E1.1433 F1200
G1 X110.000 E1.3720 F6000
G1 X85.000 E1.1433 F1200
G1 E-0.400 F2400  ; retract
M900 K0.1060  ; row 22  layer 2
G1 X165.000 Y126.000 F7200
G1 E0.400 F2400  ; unretract
G1 X140.000 E1.1433 F1200
G1 X110.000 E1.3720 F6000
G1 X85.000 E1.1433 F1200
G1 E-0.400 F2400  ; retract
M900 K0.1030  ; row 21  layer 2
G1 X165.000 Y123.000 F7200
G1 E0.400 F2400  ; unretract
G1 X140.000 E1.1433 F1200
G1 X110.000 E1.3720 F6000
G1 X85.000 E1.1433 F1200
G1 E-0.400 F2400  ; retract
M900 K0.1000  ; row 20  layer 2
G1 X165.000 Y120.000 F7200
G1 E0.400 F2400  ; unretract
G1 X140.000 E1.1433 F1200
G1 X110.000 E1.3720 F6000
G1 X85.000 E1.1433 F1200
G1 E-0.400 F2400  ; retract
M900 K0.0970  ; row 19  layer 2
G1 X165.000 Y117.000 F7200
G1 E0.400 F2400  ; unretract
G1 X140.000 E1.1433 F1200
G1 X110.000 E1.3720 F6000
G1 X85.000 E1.1433 F1200
G1 E-0.400 F2400  ; retract
M900 K0.0940  ; row 18  layer 2
G1 X165.000 Y114.000 F7200
G1 E0.400 F2400  ; unretract
G1 X140.000 E1.1433 F1200
G1 X110.000 E1.3720 F6000
G1 X85.000 E1.1433 F1200
G1 E-0.400 F2400  ; retract
M900 K0.0910  ; row 17  layer 2
G1 X165.000 Y111.000 F7200
G1 E0.400 F2400  ; unretract
G1 X140.000 E1.1433 F1200
G1 X110.000 E1.3720 F6000
G1 X85.000 E1.1433 F1200
G1 E-0.400 F2400  ; retract
M900 K0.0880  ; row 16  layer 2
G1 X165.000 Y108.000 F7200
G1 E0.400 F2400  ; unretract
G1 X140.000 E1.1433 F1200
G1 X110.000 E1.3720 F6000
G1 X85.000 E1.1433 F1200
G1 E-0.400 F2400  ; retract
M900 K0.0850  ; row 15  layer 2
G1 X165.000 Y105.000 F7200
G1 E0.400 F2400  ; unretract
G1 X140.000 E1.1433 F1200
G1 X110.000 E1.3720 F6000
G1 X85.000 E1.1433 F1200
G1 E-0.400 F2400  ; retract
M900 K0.0820  ; row 14  layer 2
G1 X165.000 Y102.000 F7200
G1 E0.400 F2400  ; unretract
G1 X140.000 E1.1433 F1200
G1 X110.000 E1.3720 F6000
G1 X85.000 E1.1433 F1200
G1 E-0.400 F2400  ; retract
M900 K0.0790  ; row 13  layer 2
G1 X165.000 Y99.000 F7200
G1 E0.400 F2400  ; unretract
G1 X140.000 E1.1433 F1200
G1 X110.000 E1.3720 F6000
G1 X85.000 E1.1433 F1200
G1 E-0.400 F2400  ; retract
M900 K0.0760  ; row 12  layer 2
G1 X165.000 Y96.000 F7200
G1 E0.400 F2400  ; unretract
G1 X140.000 E1.1433 F1200
G1 X110.000 E1.3720 F6000
G1 X85.000 E1.1433 F1200
G1 E-0.400 F2400  ; retract
M900 K0.0730  ; row 11  layer 2
G1 X165.000 Y93.000 F7200
G1 E0.400 F2400  ; unretract
G1 X140.000 E1.1433 F1200
G1 X110.000 E1.3720 F6000
G1 X85.000 E1.1433 F1200
G1 E-0.400 F2400  ; retract
M900 K0.0700  ; row 10  layer 2
G1 X165.000 Y90.000 F7200
G1 E0.400 F2400  ; unretract
G1 X140.000 E1.1433 F1200
G1 X110.000 E1.3720 F6000
G1 X85.000 E1.1433 F1200
G1 E-0.400 F2400  ; retract
M900 K0.0670  ; row 9  layer 2
G1 X165.000 Y87.000 F7200
G1 E0.400 F2400  ; unretract
G1 X140.000 E1.1433 F1200
G1 X110.000 E1.3720 F6000
G1 X85.000 E1.1433 F1200
G1 E-0.400 F2400  ; retract
M900 K0.0640  ; row 8  layer 2
G1 X165.000 Y84.000 F7200
G1 E0.400 F2400  ; unretract
G1 X140.000 E1.1433 F1200
G1 X110.000 E1.3720 F6000
G1 X85.000 E1.1433 F1200
G1 E-0.400 F2400  ; retract
M900 K0.0610  ; row 7  layer 2
G1 X165.000 Y81.000 F7200
G1 E0.400 F2400  ; unretract
G1 X140.000 E1.1433 F1200
G1 X110.000 E1.3720 F6000
G1 X85.000 E1.1433 F1200
G1 E-0.400 F2400  ; retract
M900 K0.0580  ; row 6  layer 2
G1 X165.000 Y78.000 F7200
G1 E0.400 F2400  ; unretract
G1 X140.000 E1.1433 F1200
G1 X110.000 E1.3720 F6000
G1 X85.000 E1.1433 F1200
G1 E-0.400 F2400  ; retract
M900 K0.0550  ; row 5  layer 2
G1 X165.000 Y75.000 F7200
G1 E0.400 F2400  ; unretract
G1 X140.000 E1.1433 F1200
G1 X110.000 E1.3720 F6000
G1 X85.000 E1.1433 F1200
G1 E-0.400 F2400  ; retract
M900 K0.0520  ; row 4  layer 2
G1 X165.000 Y72.000 F7200
G1 E0.400 F2400  ; unretract
G1 X140.000 E1.1433 F1200
G1 X110.000 E1.3720 F6000
G1 X85.000 E1.1433 F1200
G1 E-0.400 F2400  ; retract
M900 K0.0490  ; row 3  layer 2
G1 X165.000 Y69.000 F7200
G1 E0.400 F2400  ; unretract
G1 X140.000 E1.1433 F1200
G1 X110.000 E1.3720 F6000
G1 X85.000 E1.1433 F1200
G1 E-0.400 F2400  ; retract
M900 K0.0460  ; row 2  layer 2
G1 X165.000 Y66.000 F7200
G1 E0.400 F2400  ; unretract
G1 X140.000 E1.1433 F1200
G1 X110.000 E1.3720 F6000
G1 X85.000 E1.1433 F1200
G1 E-0.400 F2400  ; retract
M900 K0.0430  ; row 1  layer 2
G1 X165.000 Y63.000 F7200
G1 E0.400 F2400  ; unretract
G1 X140.000 E1.1433 F1200
G1 X110.000 E1.3720 F6000
G1 X85.000 E1.1433 F1200
G1 E-0.400 F2400  ; retract
M900 K0.0400  ; row 0  layer 2
G1 X165.000 Y60.000 F7200
G1 E0.400 F2400  ; unretract
G1 X140.000 E1.1433 F1200
G1 X110.000 E1.3720 F6000
G1 X85.000 E1.1433 F1200
G1 E-0.400 F2400  ; retract
; --- Layer 3 / 3  (Z=0.600) ---
G1 Z0.600 F600
M900 K0.0400  ; row 0  layer 3
G1 X85.000 Y60.000 F7200
G1 E0.400 F2400  ; unretract
G1 X110.000 E1.1433 F1200
G1 X140.000 E1.3720 F6000
G1 X165.000 E1.1433 F1200
G1 E-0.400 F2400  ; retract
M900 K0.0430  ; row 1  layer 3
G1 X85.000 Y63.000 F7200
G1 E0.400 F2400  ; unretract
G1 X110.000 E1.1433 F1200
G1 X140.000 E1.3720 F6000
G1 X165.000 E1.1433 F1200
G1 E-0.400 F2400  ; retract
M900 K0.0460  ; row 2  layer 3
G1 X85.000 Y66.000 F7200
G1 E0.400 F2400  ; unretract
G1 X110.000 E1.1433 F1200
G1 X140.000 E1.3720 F6000
G1 X165.000 E1.1433 F1200
G1 E-0.400 F2400  ; retract
M900 K0.0490  ; row 3  layer 3
G1 X85.000 Y69.000 F7200
G1 E0.400 F2400  ; unretract
G1 X110.000 E1.1433 F1200
G1 X140.000 E1.3720 F6000
G1 X165.000 E1.1433 F1200
G1 E-0.400 F2400  ; retract
M900 K0.0520  ; row 4  layer 3
G1 X85.000 Y72.000 F7200
G1 E0.400 F2400  ; unretract
G1 X110.000 E1.1433 F1200
G1 X140.000 E1.3720 F6000
G1 X165.000 E1.1433 F1200
G1 E-0.400 F2400  ; retract
M900 K0.0550  ; row 5  layer 3
G1 X85.000 Y75.000 F7200
G1 E0.400 F2400  ; unretract
G1 X110.000 E1.1433 F1200
G1 X140.000 E1.3720 F6000
G1 X165.000 E1.1433 F1200
G1 E-0.400 F2400  ; retract
M900 K0.0580  ; row 6  layer 3
G1 X85.000 Y78.000 F7200
G1 E0.400 F2400  ; unretract
G1 X110.000 E1.1433 F1200
G1 X140.000 E1.3720 F6000
G1 X165.000 E1.1433 F1200
G1 E-0.400 F2400  ; retract
M900 K0.0610  ; row 7  layer 3
G1 X85.000 Y81.000 F7200
G1 E0.400 F2400  ; unretract
G1 X110.000 E1.1433 F1200
G1 X140.000 E1.3720 F6000
G1 X165.000 E1.1433 F1200
G1 E-0.400 F2400  ; retract
M900 K0.0640  ; row 8  layer 3
G1 X85.000 Y84.000 F7200
G1 E0.400 F2400  ; unretract
G1 X110.000 E1.1433 F1200
G1 X140.000 E1.3720 F6000
G1 X165.000 E1.1433 F1200
G1 E-0.400 F2400  ; retract
M900 K0.0670  ; row 9  layer 3
G1 X85.000 Y87.000 F7200
G1 E0.400 F2400  ; unretract
G1 X110.000 E1.1433 F1200
G1 X140.000 E1.3720 F6000
G1 X165.000 E1.1433 F1200
G1 E-0.400 F2400  ; retract
M900 K0.0700  ; row 10  layer 3
G1 X85.000 Y90.000 F7200
G1 E0.400 F2400  ; unretract
G1 X110.000 E1.1433 F1200
G1 X140.000 E1.3720 F6000
G1 X165.000 E1.1433 F1200
G1 E-0.400 F2400  ; retract
M900 K0.0730  ; row 11  layer 3
G1 X85.000 Y93.000 F7200
G1 E0.400 F2400  ; unretract
G1 X110.000 E1.1433 F1200
G1 X140.000 E1.3720 F6000
G1 X165.000 E1.1433 F1200
G1 E-0.400 F2400  ; retract
M900 K0.0760  ; row 12  layer 3
G1 X85.000 Y96.000 F7200
G1 E0.400 F2400  ; unretract
G1 X110.000 E1.1433 F1200
G1 X140.000 E1.3720 F6000
G1 X165.000 E1.1433 F1200
G1 E-0.400 F2400  ; retract
M900 K0.0790  ; row 13  layer 3
G1 X85.000 Y99.000 F7200
G1 E0.400 F2400  ; unretract
G1 X110.000 E1.1433 F1200
G1 X140.000 E1.3720 F6000
G1 X165.000 E1.1433 F1200
G1 E-0.400 F2400  ; retract
M900 K0.0820  ; row 14  layer 3
G1 X85.000 Y102.000 F7200
G1 E0.400 F2400  ; unretract
G1 X110.000 E1.1433 F1200
G1 X140.000 E1.3720 F6000
G1 X165.000 E1.1433 F1200
G1 E-0.400 F2400  ; retract
M900 K0.0850  ; row 15  layer 3
G1 X85.000 Y105.000 F7200
G1 E0.400 F2400  ; unretract
G1 X110.000 E1.1433 F1200
G1 X140.000 E1.3720 F6000
G1 X165.000 E1.1433 F1200
G1 E-0.400 F2400  ; retract
M900 K0.0880  ; row 16  layer 3
G1 X85.000 Y108.000 F7200
G1 E0.400 F2400  ; unretract
G1 X110.000 E1.1433 F1200
G1 X140.000 E1.3720 F6000
G1 X165.000 E1.1433 F1200
G1 E-0.400 F2400  ; retract
M900 K0.0910  ; row 17  layer 3
G1 X85.000 Y111.000 F7200
G1 E0.400 F2400  ; unretract
G1 X110.000 E1.1433 F1200
G1 X140.000 E1.3720 F6000
G1 X165.000 E1.1433 F1200
G1 E-0.400 F2400  ; retract
M900 K0.0940  ; row 18  layer 3
G1 X85.000 Y114.000 F7200
G1 E0.400 F2400  ; unretract
G1 X110.000 E1.1433 F1200
G1 X140.000 E1.3720 F6000
G1 X165.000 E1.1433 F1200
G1 E-0.400 F2400  ; retract
M900 K0.0970  ; row 19  layer 3
G1 X85.000 Y117.000 F7200
G1 E0.400 F2400  ; unretract
G1 X110.000 E1.1433 F1200
G1 X140.000 E1.3720 F6000
G1 X165.000 E1.1433 F1200
G1 E-0.400 F2400  ; retract
M900 K0.1000  ; row 20  layer 3
G1 X85.000 Y120.000 F7200
G1 E0.400 F2400  ; unretract
G1 X110.000 E1.1433 F1200
G1 X140.000 E1.3720 F6000
G1 X165.000 E1.1433 F1200
G1 E-0.400 F2400  ; retract
M900 K0.1030  ; row 21  layer 3
G1 X85.000 Y123.000 F7200
G1 E0.400 F2400  ; unretract
G1 X110.000 E1.1433 F1200
G1 X140.000 E1.3720 F6000
G1 X165.000 E1.1433 F1200
G1 E-0.400 F2400  ; retract
M900 K0.1060  ; row 22  layer 3
G1 X85.000 Y126.000 F7200
G1 E0.400 F2400  ; unretract
G1 X110.000 E1.1433 F1200
G1 X140.000 E1.3720 F6000
G1 X165.000 E1.1433 F1200
G1 E-0.400 F2400  ; retract
M900 K0.1090  ; row 23  layer 3
G1 X85.000 Y129.000 F7200
G1 E0.400 F2400  ; unretract
G1 X110.000 E1.1433 F1200
G1 X140.000 E1.3720 F6000
G1 X165.000 E1.1433 F1200
G1 E-0.400 F2400  ; retract
M900 K0.1120  ; row 24  layer 3
G1 X85.000 Y132.000 F7200
G1 E0.400 F2400  ; unretract
G1 X110.000 E1.1433 F1200
G1 X140.000 E1.3720 F6000
G1 X165.000 E1.1433 F1200
G1 E-0.400 F2400  ; retract
M900 K0.1150  ; row 25  layer 3
G1 X85.000 Y135.000 F7200
G1 E0.400 F2400  ; unretract
G1 X110.000 E1.1433 F1200
G1 X140.000 E1.3720 F6000
G1 X165.000 E1.1433 F1200
G1 E-0.400 F2400  ; retract
M900 K0.1180  ; row 26  layer 3
G1 X85.000 Y138.000 F7200
G1 E0.400 F2400  ; unretract
G1 X110.000 E1.1433 F1200
G1 X140.000 E1.3720 F6000
G1 X165.000 E1.1433 F1200
G1 E-0.400 F2400  ; retract
M900 K0.1210  ; row 27  layer 3
G1 X85.000 Y141.000 F7200
G1 E0.400 F2400  ; unretract
G1 X110.000 E1.1433 F1200
G1 X140.000 E1.3720 F6000
G1 X165.000 E1.1433 F1200
G1 E-0.400 F2400  ; retract
M900 K0.1240  ; row 28  layer 3
G1 X85.000 Y144.000 F7200
G1 E0.400 F2400  ; unretract
G1 X110.000 E1.1433 F1200
G1 X140.000 E1.3720 F6000
G1 X165.000 E1.1433 F1200
G1 E-0.400 F2400  ; retract
M900 K0.1270  ; row 29  layer 3
G1 X85.000 Y147.000 F7200
G1 E0.400 F2400  ; unretract
G1 X110.000 E1.1433 F1200
G1 X140.000 E1.3720 F6000
G1 X165.000 E1.1433 F1200
G1 E-0.400 F2400  ; retract
M900 K0.1300  ; row 30  layer 3
G1 X85.000 Y150.000 F7200
G1 E0.400 F2400  ; unretract
G1 X110.000 E1.1433 F1200
G1 X140.000 E1.3720 F6000
G1 X165.000 E1.1433 F1200
G1 E-0.400 F2400  ; retract
; --- End sequence ---
G1 Z30.00 F600  ; lift
G1 X10 Y200 F6000    ; park near front
M104 S0              ; hotend off
M140 S0              ; bed off
M107                 ; fan off
M84                  ; steppers off
M900 K0.0000  ; restore linear-advance K-factor
