; Prusa PA test sweep (41 K values, K 0.0000..0.0800 step 0.002)
; Generated 2026-04-22 13:31:30 by pa_dev/tools/generate_pa_test.py
; Filament 1.75 mm, nozzle 0.4 mm, line 0.55 mm × 0.2 mm
; Slow 20.0 mm/s · Fast 100.0 mm/s · Layers 3
;
; --- Start sequence ---
M140 S60
M104 S215
G90                  ; absolute XYZ
M83                  ; relative E
G21                  ; mm
M107                 ; part-cooling fan off for first layer
G28                  ; home all axes
G29                  ; bed mesh / MBL (buddy firmware handles profile)
M190 S60     ; wait for bed
M109 S215  ; wait for hotend
M204 P2500 R1500 T3000
; --- M573 baseline pressure capture (pre-print) ---
G1 Z5.000 F600        ; raise Z for safety
G1 X10.000 Y5.000 F3000  ; park near front-left
M573                  ; capture loadcell-derived pressure curve (~5 s)
G1 Z0.200 F600
G1 X20 Y15.500 F7200
G1 X120.0 Y15.500 E4.5733 F1200  ; purge line
G1 E-0.400 F2400  ; retract
G1 X130.0 F7200  ; wipe
; --- Layer 1 / 3  (Z=0.200) ---
G1 Z0.200 F600
; label 0.000 (K=0.0000) row 0
G1 X61.000 Y43.000 F7200
G1 E0.400 F2400  ; unretract (label)
G1 X64.000 Y43.000 E0.1372 F1200
G1 X64.000 Y47.000 E0.1829 F1200
G1 X61.000 Y47.000 E0.1372 F1200
G1 X61.000 Y43.000 E0.1829 F1200
G1 E-0.400 F2400  ; retract (label)
G1 X65.750 Y43.000 F7200
G1 E0.400 F2400  ; unretract (label)
G1 X67.250 Y43.000 E0.0686 F1200
G1 E-0.400 F2400  ; retract (label)
G1 X69.000 Y43.000 F7200
G1 E0.400 F2400  ; unretract (label)
G1 X72.000 Y43.000 E0.1372 F1200
G1 X72.000 Y47.000 E0.1829 F1200
G1 X69.000 Y47.000 E0.1372 F1200
G1 X69.000 Y43.000 E0.1829 F1200
G1 E-0.400 F2400  ; retract (label)
G1 X73.000 Y43.000 F7200
G1 E0.400 F2400  ; unretract (label)
G1 X76.000 Y43.000 E0.1372 F1200
G1 X76.000 Y47.000 E0.1829 F1200
G1 X73.000 Y47.000 E0.1372 F1200
G1 X73.000 Y43.000 E0.1829 F1200
G1 E-0.400 F2400  ; retract (label)
G1 X77.000 Y43.000 F7200
G1 E0.400 F2400  ; unretract (label)
G1 X80.000 Y43.000 E0.1372 F1200
G1 X80.000 Y47.000 E0.1829 F1200
G1 X77.000 Y47.000 E0.1372 F1200
G1 X77.000 Y43.000 E0.1829 F1200
G1 E-0.400 F2400  ; retract (label)
M900 K0.0000  ; row 0  layer 1
G1 X85.000 Y45.000 F7200
G1 E0.400 F2400  ; unretract
G1 X110.000 E1.1433 F1200
G1 X140.000 E1.3720 F6000
G1 X165.000 E1.1433 F1200
G1 E-0.400 F2400  ; retract
M900 K0.0020  ; row 1  layer 1
G1 X85.000 Y48.000 F7200
G1 E0.400 F2400  ; unretract
G1 X110.000 E1.1433 F1200
G1 X140.000 E1.3720 F6000
G1 X165.000 E1.1433 F1200
G1 E-0.400 F2400  ; retract
M900 K0.0040  ; row 2  layer 1
G1 X85.000 Y51.000 F7200
G1 E0.400 F2400  ; unretract
G1 X110.000 E1.1433 F1200
G1 X140.000 E1.3720 F6000
G1 X165.000 E1.1433 F1200
G1 E-0.400 F2400  ; retract
M900 K0.0060  ; row 3  layer 1
G1 X85.000 Y54.000 F7200
G1 E0.400 F2400  ; unretract
G1 X110.000 E1.1433 F1200
G1 X140.000 E1.3720 F6000
G1 X165.000 E1.1433 F1200
G1 E-0.400 F2400  ; retract
M900 K0.0080  ; row 4  layer 1
G1 X85.000 Y57.000 F7200
G1 E0.400 F2400  ; unretract
G1 X110.000 E1.1433 F1200
G1 X140.000 E1.3720 F6000
G1 X165.000 E1.1433 F1200
G1 E-0.400 F2400  ; retract
; label 0.010 (K=0.0100) row 5
G1 X61.000 Y58.000 F7200
G1 E0.400 F2400  ; unretract (label)
G1 X64.000 Y58.000 E0.1372 F1200
G1 X64.000 Y62.000 E0.1829 F1200
G1 X61.000 Y62.000 E0.1372 F1200
G1 X61.000 Y58.000 E0.1829 F1200
G1 E-0.400 F2400  ; retract (label)
G1 X65.750 Y58.000 F7200
G1 E0.400 F2400  ; unretract (label)
G1 X67.250 Y58.000 E0.0686 F1200
G1 E-0.400 F2400  ; retract (label)
G1 X69.000 Y58.000 F7200
G1 E0.400 F2400  ; unretract (label)
G1 X72.000 Y58.000 E0.1372 F1200
G1 X72.000 Y62.000 E0.1829 F1200
G1 X69.000 Y62.000 E0.1372 F1200
G1 X69.000 Y58.000 E0.1829 F1200
G1 E-0.400 F2400  ; retract (label)
G1 X73.000 Y58.000 F7200
G1 E0.400 F2400  ; unretract (label)
G1 X76.000 Y58.000 E0.1372 F1200
G1 X74.500 Y58.000 E0.0686 F1200
G1 X74.500 Y62.000 E0.1829 F1200
G1 X73.000 Y61.000 E0.0824 F1200
G1 E-0.400 F2400  ; retract (label)
G1 X77.000 Y58.000 F7200
G1 E0.400 F2400  ; unretract (label)
G1 X80.000 Y58.000 E0.1372 F1200
G1 X80.000 Y62.000 E0.1829 F1200
G1 X77.000 Y62.000 E0.1372 F1200
G1 X77.000 Y58.000 E0.1829 F1200
G1 E-0.400 F2400  ; retract (label)
M900 K0.0100  ; row 5  layer 1
G1 X85.000 Y60.000 F7200
G1 E0.400 F2400  ; unretract
G1 X110.000 E1.1433 F1200
G1 X140.000 E1.3720 F6000
G1 X165.000 E1.1433 F1200
G1 E-0.400 F2400  ; retract
M900 K0.0120  ; row 6  layer 1
G1 X85.000 Y63.000 F7200
G1 E0.400 F2400  ; unretract
G1 X110.000 E1.1433 F1200
G1 X140.000 E1.3720 F6000
G1 X165.000 E1.1433 F1200
G1 E-0.400 F2400  ; retract
M900 K0.0140  ; row 7  layer 1
G1 X85.000 Y66.000 F7200
G1 E0.400 F2400  ; unretract
G1 X110.000 E1.1433 F1200
G1 X140.000 E1.3720 F6000
G1 X165.000 E1.1433 F1200
G1 E-0.400 F2400  ; retract
M900 K0.0160  ; row 8  layer 1
G1 X85.000 Y69.000 F7200
G1 E0.400 F2400  ; unretract
G1 X110.000 E1.1433 F1200
G1 X140.000 E1.3720 F6000
G1 X165.000 E1.1433 F1200
G1 E-0.400 F2400  ; retract
M900 K0.0180  ; row 9  layer 1
G1 X85.000 Y72.000 F7200
G1 E0.400 F2400  ; unretract
G1 X110.000 E1.1433 F1200
G1 X140.000 E1.3720 F6000
G1 X165.000 E1.1433 F1200
G1 E-0.400 F2400  ; retract
; label 0.020 (K=0.0200) row 10
G1 X61.000 Y73.000 F7200
G1 E0.400 F2400  ; unretract (label)
G1 X64.000 Y73.000 E0.1372 F1200
G1 X64.000 Y77.000 E0.1829 F1200
G1 X61.000 Y77.000 E0.1372 F1200
G1 X61.000 Y73.000 E0.1829 F1200
G1 E-0.400 F2400  ; retract (label)
G1 X65.750 Y73.000 F7200
G1 E0.400 F2400  ; unretract (label)
G1 X67.250 Y73.000 E0.0686 F1200
G1 E-0.400 F2400  ; retract (label)
G1 X69.000 Y73.000 F7200
G1 E0.400 F2400  ; unretract (label)
G1 X72.000 Y73.000 E0.1372 F1200
G1 X72.000 Y77.000 E0.1829 F1200
G1 X69.000 Y77.000 E0.1372 F1200
G1 X69.000 Y73.000 E0.1829 F1200
G1 E-0.400 F2400  ; retract (label)
G1 X73.000 Y77.000 F7200
G1 E0.400 F2400  ; unretract (label)
G1 X76.000 Y77.000 E0.1372 F1200
G1 X76.000 Y75.000 E0.0915 F1200
G1 X73.000 Y75.000 E0.1372 F1200
G1 X73.000 Y73.000 E0.0915 F1200
G1 X76.000 Y73.000 E0.1372 F1200
G1 E-0.400 F2400  ; retract (label)
G1 X77.000 Y73.000 F7200
G1 E0.400 F2400  ; unretract (label)
G1 X80.000 Y73.000 E0.1372 F1200
G1 X80.000 Y77.000 E0.1829 F1200
G1 X77.000 Y77.000 E0.1372 F1200
G1 X77.000 Y73.000 E0.1829 F1200
G1 E-0.400 F2400  ; retract (label)
M900 K0.0200  ; row 10  layer 1
G1 X85.000 Y75.000 F7200
G1 E0.400 F2400  ; unretract
G1 X110.000 E1.1433 F1200
G1 X140.000 E1.3720 F6000
G1 X165.000 E1.1433 F1200
G1 E-0.400 F2400  ; retract
M900 K0.0220  ; row 11  layer 1
G1 X85.000 Y78.000 F7200
G1 E0.400 F2400  ; unretract
G1 X110.000 E1.1433 F1200
G1 X140.000 E1.3720 F6000
G1 X165.000 E1.1433 F1200
G1 E-0.400 F2400  ; retract
M900 K0.0240  ; row 12  layer 1
G1 X85.000 Y81.000 F7200
G1 E0.400 F2400  ; unretract
G1 X110.000 E1.1433 F1200
G1 X140.000 E1.3720 F6000
G1 X165.000 E1.1433 F1200
G1 E-0.400 F2400  ; retract
M900 K0.0260  ; row 13  layer 1
G1 X85.000 Y84.000 F7200
G1 E0.400 F2400  ; unretract
G1 X110.000 E1.1433 F1200
G1 X140.000 E1.3720 F6000
G1 X165.000 E1.1433 F1200
G1 E-0.400 F2400  ; retract
M900 K0.0280  ; row 14  layer 1
G1 X85.000 Y87.000 F7200
G1 E0.400 F2400  ; unretract
G1 X110.000 E1.1433 F1200
G1 X140.000 E1.3720 F6000
G1 X165.000 E1.1433 F1200
G1 E-0.400 F2400  ; retract
; label 0.030 (K=0.0300) row 15
G1 X61.000 Y88.000 F7200
G1 E0.400 F2400  ; unretract (label)
G1 X64.000 Y88.000 E0.1372 F1200
G1 X64.000 Y92.000 E0.1829 F1200
G1 X61.000 Y92.000 E0.1372 F1200
G1 X61.000 Y88.000 E0.1829 F1200
G1 E-0.400 F2400  ; retract (label)
G1 X65.750 Y88.000 F7200
G1 E0.400 F2400  ; unretract (label)
G1 X67.250 Y88.000 E0.0686 F1200
G1 E-0.400 F2400  ; retract (label)
G1 X69.000 Y88.000 F7200
G1 E0.400 F2400  ; unretract (label)
G1 X72.000 Y88.000 E0.1372 F1200
G1 X72.000 Y92.000 E0.1829 F1200
G1 X69.000 Y92.000 E0.1372 F1200
G1 X69.000 Y88.000 E0.1829 F1200
G1 E-0.400 F2400  ; retract (label)
G1 X73.000 Y92.000 F7200
G1 E0.400 F2400  ; unretract (label)
G1 X76.000 Y92.000 E0.1372 F1200
G1 X76.000 Y90.000 E0.0915 F1200
G1 X73.000 Y90.000 E0.1372 F1200
G1 X76.000 Y90.000 E0.1372 F1200
G1 X76.000 Y88.000 E0.0915 F1200
G1 X73.000 Y88.000 E0.1372 F1200
G1 E-0.400 F2400  ; retract (label)
G1 X77.000 Y88.000 F7200
G1 E0.400 F2400  ; unretract (label)
G1 X80.000 Y88.000 E0.1372 F1200
G1 X80.000 Y92.000 E0.1829 F1200
G1 X77.000 Y92.000 E0.1372 F1200
G1 X77.000 Y88.000 E0.1829 F1200
G1 E-0.400 F2400  ; retract (label)
M900 K0.0300  ; row 15  layer 1
G1 X85.000 Y90.000 F7200
G1 E0.400 F2400  ; unretract
G1 X110.000 E1.1433 F1200
G1 X140.000 E1.3720 F6000
G1 X165.000 E1.1433 F1200
G1 E-0.400 F2400  ; retract
M900 K0.0320  ; row 16  layer 1
G1 X85.000 Y93.000 F7200
G1 E0.400 F2400  ; unretract
G1 X110.000 E1.1433 F1200
G1 X140.000 E1.3720 F6000
G1 X165.000 E1.1433 F1200
G1 E-0.400 F2400  ; retract
M900 K0.0340  ; row 17  layer 1
G1 X85.000 Y96.000 F7200
G1 E0.400 F2400  ; unretract
G1 X110.000 E1.1433 F1200
G1 X140.000 E1.3720 F6000
G1 X165.000 E1.1433 F1200
G1 E-0.400 F2400  ; retract
M900 K0.0360  ; row 18  layer 1
G1 X85.000 Y99.000 F7200
G1 E0.400 F2400  ; unretract
G1 X110.000 E1.1433 F1200
G1 X140.000 E1.3720 F6000
G1 X165.000 E1.1433 F1200
G1 E-0.400 F2400  ; retract
M900 K0.0380  ; row 19  layer 1
G1 X85.000 Y102.000 F7200
G1 E0.400 F2400  ; unretract
G1 X110.000 E1.1433 F1200
G1 X140.000 E1.3720 F6000
G1 X165.000 E1.1433 F1200
G1 E-0.400 F2400  ; retract
; label 0.040 (K=0.0400) row 20
G1 X61.000 Y103.000 F7200
G1 E0.400 F2400  ; unretract (label)
G1 X64.000 Y103.000 E0.1372 F1200
G1 X64.000 Y107.000 E0.1829 F1200
G1 X61.000 Y107.000 E0.1372 F1200
G1 X61.000 Y103.000 E0.1829 F1200
G1 E-0.400 F2400  ; retract (label)
G1 X65.750 Y103.000 F7200
G1 E0.400 F2400  ; unretract (label)
G1 X67.250 Y103.000 E0.0686 F1200
G1 E-0.400 F2400  ; retract (label)
G1 X69.000 Y103.000 F7200
G1 E0.400 F2400  ; unretract (label)
G1 X72.000 Y103.000 E0.1372 F1200
G1 X72.000 Y107.000 E0.1829 F1200
G1 X69.000 Y107.000 E0.1372 F1200
G1 X69.000 Y103.000 E0.1829 F1200
G1 E-0.400 F2400  ; retract (label)
G1 X73.000 Y107.000 F7200
G1 E0.400 F2400  ; unretract (label)
G1 X73.000 Y105.000 E0.0915 F1200
G1 X76.000 Y105.000 E0.1372 F1200
G1 X76.000 Y107.000 E0.0915 F1200
G1 X76.000 Y103.000 E0.1829 F1200
G1 E-0.400 F2400  ; retract (label)
G1 X77.000 Y103.000 F7200
G1 E0.400 F2400  ; unretract (label)
G1 X80.000 Y103.000 E0.1372 F1200
G1 X80.000 Y107.000 E0.1829 F1200
G1 X77.000 Y107.000 E0.1372 F1200
G1 X77.000 Y103.000 E0.1829 F1200
G1 E-0.400 F2400  ; retract (label)
M900 K0.0400  ; row 20  layer 1
G1 X85.000 Y105.000 F7200
G1 E0.400 F2400  ; unretract
G1 X110.000 E1.1433 F1200
G1 X140.000 E1.3720 F6000
G1 X165.000 E1.1433 F1200
G1 E-0.400 F2400  ; retract
M900 K0.0420  ; row 21  layer 1
G1 X85.000 Y108.000 F7200
G1 E0.400 F2400  ; unretract
G1 X110.000 E1.1433 F1200
G1 X140.000 E1.3720 F6000
G1 X165.000 E1.1433 F1200
G1 E-0.400 F2400  ; retract
M900 K0.0440  ; row 22  layer 1
G1 X85.000 Y111.000 F7200
G1 E0.400 F2400  ; unretract
G1 X110.000 E1.1433 F1200
G1 X140.000 E1.3720 F6000
G1 X165.000 E1.1433 F1200
G1 E-0.400 F2400  ; retract
M900 K0.0460  ; row 23  layer 1
G1 X85.000 Y114.000 F7200
G1 E0.400 F2400  ; unretract
G1 X110.000 E1.1433 F1200
G1 X140.000 E1.3720 F6000
G1 X165.000 E1.1433 F1200
G1 E-0.400 F2400  ; retract
M900 K0.0480  ; row 24  layer 1
G1 X85.000 Y117.000 F7200
G1 E0.400 F2400  ; unretract
G1 X110.000 E1.1433 F1200
G1 X140.000 E1.3720 F6000
G1 X165.000 E1.1433 F1200
G1 E-0.400 F2400  ; retract
; label 0.050 (K=0.0500) row 25
G1 X61.000 Y118.000 F7200
G1 E0.400 F2400  ; unretract (label)
G1 X64.000 Y118.000 E0.1372 F1200
G1 X64.000 Y122.000 E0.1829 F1200
G1 X61.000 Y122.000 E0.1372 F1200
G1 X61.000 Y118.000 E0.1829 F1200
G1 E-0.400 F2400  ; retract (label)
G1 X65.750 Y118.000 F7200
G1 E0.400 F2400  ; unretract (label)
G1 X67.250 Y118.000 E0.0686 F1200
G1 E-0.400 F2400  ; retract (label)
G1 X69.000 Y118.000 F7200
G1 E0.400 F2400  ; unretract (label)
G1 X72.000 Y118.000 E0.1372 F1200
G1 X72.000 Y122.000 E0.1829 F1200
G1 X69.000 Y122.000 E0.1372 F1200
G1 X69.000 Y118.000 E0.1829 F1200
G1 E-0.400 F2400  ; retract (label)
G1 X76.000 Y122.000 F7200
G1 E0.400 F2400  ; unretract (label)
G1 X73.000 Y122.000 E0.1372 F1200
G1 X73.000 Y120.000 E0.0915 F1200
G1 X76.000 Y120.000 E0.1372 F1200
G1 X76.000 Y118.000 E0.0915 F1200
G1 X73.000 Y118.000 E0.1372 F1200
G1 E-0.400 F2400  ; retract (label)
G1 X77.000 Y118.000 F7200
G1 E0.400 F2400  ; unretract (label)
G1 X80.000 Y118.000 E0.1372 F1200
G1 X80.000 Y122.000 E0.1829 F1200
G1 X77.000 Y122.000 E0.1372 F1200
G1 X77.000 Y118.000 E0.1829 F1200
G1 E-0.400 F2400  ; retract (label)
M900 K0.0500  ; row 25  layer 1
G1 X85.000 Y120.000 F7200
G1 E0.400 F2400  ; unretract
G1 X110.000 E1.1433 F1200
G1 X140.000 E1.3720 F6000
G1 X165.000 E1.1433 F1200
G1 E-0.400 F2400  ; retract
M900 K0.0520  ; row 26  layer 1
G1 X85.000 Y123.000 F7200
G1 E0.400 F2400  ; unretract
G1 X110.000 E1.1433 F1200
G1 X140.000 E1.3720 F6000
G1 X165.000 E1.1433 F1200
G1 E-0.400 F2400  ; retract
M900 K0.0540  ; row 27  layer 1
G1 X85.000 Y126.000 F7200
G1 E0.400 F2400  ; unretract
G1 X110.000 E1.1433 F1200
G1 X140.000 E1.3720 F6000
G1 X165.000 E1.1433 F1200
G1 E-0.400 F2400  ; retract
M900 K0.0560  ; row 28  layer 1
G1 X85.000 Y129.000 F7200
G1 E0.400 F2400  ; unretract
G1 X110.000 E1.1433 F1200
G1 X140.000 E1.3720 F6000
G1 X165.000 E1.1433 F1200
G1 E-0.400 F2400  ; retract
M900 K0.0580  ; row 29  layer 1
G1 X85.000 Y132.000 F7200
G1 E0.400 F2400  ; unretract
G1 X110.000 E1.1433 F1200
G1 X140.000 E1.3720 F6000
G1 X165.000 E1.1433 F1200
G1 E-0.400 F2400  ; retract
; label 0.060 (K=0.0600) row 30
G1 X61.000 Y133.000 F7200
G1 E0.400 F2400  ; unretract (label)
G1 X64.000 Y133.000 E0.1372 F1200
G1 X64.000 Y137.000 E0.1829 F1200
G1 X61.000 Y137.000 E0.1372 F1200
G1 X61.000 Y133.000 E0.1829 F1200
G1 E-0.400 F2400  ; retract (label)
G1 X65.750 Y133.000 F7200
G1 E0.400 F2400  ; unretract (label)
G1 X67.250 Y133.000 E0.0686 F1200
G1 E-0.400 F2400  ; retract (label)
G1 X69.000 Y133.000 F7200
G1 E0.400 F2400  ; unretract (label)
G1 X72.000 Y133.000 E0.1372 F1200
G1 X72.000 Y137.000 E0.1829 F1200
G1 X69.000 Y137.000 E0.1372 F1200
G1 X69.000 Y133.000 E0.1829 F1200
G1 E-0.400 F2400  ; retract (label)
G1 X76.000 Y137.000 F7200
G1 E0.400 F2400  ; unretract (label)
G1 X73.000 Y137.000 E0.1372 F1200
G1 X73.000 Y133.000 E0.1829 F1200
G1 X76.000 Y133.000 E0.1372 F1200
G1 X76.000 Y135.000 E0.0915 F1200
G1 X73.000 Y135.000 E0.1372 F1200
G1 E-0.400 F2400  ; retract (label)
G1 X77.000 Y133.000 F7200
G1 E0.400 F2400  ; unretract (label)
G1 X80.000 Y133.000 E0.1372 F1200
G1 X80.000 Y137.000 E0.1829 F1200
G1 X77.000 Y137.000 E0.1372 F1200
G1 X77.000 Y133.000 E0.1829 F1200
G1 E-0.400 F2400  ; retract (label)
M900 K0.0600  ; row 30  layer 1
G1 X85.000 Y135.000 F7200
G1 E0.400 F2400  ; unretract
G1 X110.000 E1.1433 F1200
G1 X140.000 E1.3720 F6000
G1 X165.000 E1.1433 F1200
G1 E-0.400 F2400  ; retract
M900 K0.0620  ; row 31  layer 1
G1 X85.000 Y138.000 F7200
G1 E0.400 F2400  ; unretract
G1 X110.000 E1.1433 F1200
G1 X140.000 E1.3720 F6000
G1 X165.000 E1.1433 F1200
G1 E-0.400 F2400  ; retract
M900 K0.0640  ; row 32  layer 1
G1 X85.000 Y141.000 F7200
G1 E0.400 F2400  ; unretract
G1 X110.000 E1.1433 F1200
G1 X140.000 E1.3720 F6000
G1 X165.000 E1.1433 F1200
G1 E-0.400 F2400  ; retract
M900 K0.0660  ; row 33  layer 1
G1 X85.000 Y144.000 F7200
G1 E0.400 F2400  ; unretract
G1 X110.000 E1.1433 F1200
G1 X140.000 E1.3720 F6000
G1 X165.000 E1.1433 F1200
G1 E-0.400 F2400  ; retract
M900 K0.0680  ; row 34  layer 1
G1 X85.000 Y147.000 F7200
G1 E0.400 F2400  ; unretract
G1 X110.000 E1.1433 F1200
G1 X140.000 E1.3720 F6000
G1 X165.000 E1.1433 F1200
G1 E-0.400 F2400  ; retract
; label 0.070 (K=0.0700) row 35
G1 X61.000 Y148.000 F7200
G1 E0.400 F2400  ; unretract (label)
G1 X64.000 Y148.000 E0.1372 F1200
G1 X64.000 Y152.000 E0.1829 F1200
G1 X61.000 Y152.000 E0.1372 F1200
G1 X61.000 Y148.000 E0.1829 F1200
G1 E-0.400 F2400  ; retract (label)
G1 X65.750 Y148.000 F7200
G1 E0.400 F2400  ; unretract (label)
G1 X67.250 Y148.000 E0.0686 F1200
G1 E-0.400 F2400  ; retract (label)
G1 X69.000 Y148.000 F7200
G1 E0.400 F2400  ; unretract (label)
G1 X72.000 Y148.000 E0.1372 F1200
G1 X72.000 Y152.000 E0.1829 F1200
G1 X69.000 Y152.000 E0.1372 F1200
G1 X69.000 Y148.000 E0.1829 F1200
G1 E-0.400 F2400  ; retract (label)
G1 X73.000 Y152.000 F7200
G1 E0.400 F2400  ; unretract (label)
G1 X76.000 Y152.000 E0.1372 F1200
G1 X76.000 Y148.000 E0.1829 F1200
G1 E-0.400 F2400  ; retract (label)
G1 X77.000 Y148.000 F7200
G1 E0.400 F2400  ; unretract (label)
G1 X80.000 Y148.000 E0.1372 F1200
G1 X80.000 Y152.000 E0.1829 F1200
G1 X77.000 Y152.000 E0.1372 F1200
G1 X77.000 Y148.000 E0.1829 F1200
G1 E-0.400 F2400  ; retract (label)
M900 K0.0700  ; row 35  layer 1
G1 X85.000 Y150.000 F7200
G1 E0.400 F2400  ; unretract
G1 X110.000 E1.1433 F1200
G1 X140.000 E1.3720 F6000
G1 X165.000 E1.1433 F1200
G1 E-0.400 F2400  ; retract
M900 K0.0720  ; row 36  layer 1
G1 X85.000 Y153.000 F7200
G1 E0.400 F2400  ; unretract
G1 X110.000 E1.1433 F1200
G1 X140.000 E1.3720 F6000
G1 X165.000 E1.1433 F1200
G1 E-0.400 F2400  ; retract
M900 K0.0740  ; row 37  layer 1
G1 X85.000 Y156.000 F7200
G1 E0.400 F2400  ; unretract
G1 X110.000 E1.1433 F1200
G1 X140.000 E1.3720 F6000
G1 X165.000 E1.1433 F1200
G1 E-0.400 F2400  ; retract
M900 K0.0760  ; row 38  layer 1
G1 X85.000 Y159.000 F7200
G1 E0.400 F2400  ; unretract
G1 X110.000 E1.1433 F1200
G1 X140.000 E1.3720 F6000
G1 X165.000 E1.1433 F1200
G1 E-0.400 F2400  ; retract
M900 K0.0780  ; row 39  layer 1
G1 X85.000 Y162.000 F7200
G1 E0.400 F2400  ; unretract
G1 X110.000 E1.1433 F1200
G1 X140.000 E1.3720 F6000
G1 X165.000 E1.1433 F1200
G1 E-0.400 F2400  ; retract
; label 0.080 (K=0.0800) row 40
G1 X61.000 Y163.000 F7200
G1 E0.400 F2400  ; unretract (label)
G1 X64.000 Y163.000 E0.1372 F1200
G1 X64.000 Y167.000 E0.1829 F1200
G1 X61.000 Y167.000 E0.1372 F1200
G1 X61.000 Y163.000 E0.1829 F1200
G1 E-0.400 F2400  ; retract (label)
G1 X65.750 Y163.000 F7200
G1 E0.400 F2400  ; unretract (label)
G1 X67.250 Y163.000 E0.0686 F1200
G1 E-0.400 F2400  ; retract (label)
G1 X69.000 Y163.000 F7200
G1 E0.400 F2400  ; unretract (label)
G1 X72.000 Y163.000 E0.1372 F1200
G1 X72.000 Y167.000 E0.1829 F1200
G1 X69.000 Y167.000 E0.1372 F1200
G1 X69.000 Y163.000 E0.1829 F1200
G1 E-0.400 F2400  ; retract (label)
G1 X73.000 Y167.000 F7200
G1 E0.400 F2400  ; unretract (label)
G1 X73.000 Y163.000 E0.1829 F1200
G1 X76.000 Y163.000 E0.1372 F1200
G1 X76.000 Y167.000 E0.1829 F1200
G1 X73.000 Y167.000 E0.1372 F1200
G1 X73.000 Y165.000 E0.0915 F1200
G1 X76.000 Y165.000 E0.1372 F1200
G1 E-0.400 F2400  ; retract (label)
G1 X77.000 Y163.000 F7200
G1 E0.400 F2400  ; unretract (label)
G1 X80.000 Y163.000 E0.1372 F1200
G1 X80.000 Y167.000 E0.1829 F1200
G1 X77.000 Y167.000 E0.1372 F1200
G1 X77.000 Y163.000 E0.1829 F1200
G1 E-0.400 F2400  ; retract (label)
M900 K0.0800  ; row 40  layer 1
G1 X85.000 Y165.000 F7200
G1 E0.400 F2400  ; unretract
G1 X110.000 E1.1433 F1200
G1 X140.000 E1.3720 F6000
G1 X165.000 E1.1433 F1200
G1 E-0.400 F2400  ; retract
; --- Layer 2 / 3  (Z=0.400) ---
G1 Z0.400 F600
M900 K0.0800  ; row 40  layer 2
G1 X165.000 Y165.000 F7200
G1 E0.400 F2400  ; unretract
G1 X140.000 E1.1433 F1200
G1 X110.000 E1.3720 F6000
G1 X85.000 E1.1433 F1200
G1 E-0.400 F2400  ; retract
M900 K0.0780  ; row 39  layer 2
G1 X165.000 Y162.000 F7200
G1 E0.400 F2400  ; unretract
G1 X140.000 E1.1433 F1200
G1 X110.000 E1.3720 F6000
G1 X85.000 E1.1433 F1200
G1 E-0.400 F2400  ; retract
M900 K0.0760  ; row 38  layer 2
G1 X165.000 Y159.000 F7200
G1 E0.400 F2400  ; unretract
G1 X140.000 E1.1433 F1200
G1 X110.000 E1.3720 F6000
G1 X85.000 E1.1433 F1200
G1 E-0.400 F2400  ; retract
M900 K0.0740  ; row 37  layer 2
G1 X165.000 Y156.000 F7200
G1 E0.400 F2400  ; unretract
G1 X140.000 E1.1433 F1200
G1 X110.000 E1.3720 F6000
G1 X85.000 E1.1433 F1200
G1 E-0.400 F2400  ; retract
M900 K0.0720  ; row 36  layer 2
G1 X165.000 Y153.000 F7200
G1 E0.400 F2400  ; unretract
G1 X140.000 E1.1433 F1200
G1 X110.000 E1.3720 F6000
G1 X85.000 E1.1433 F1200
G1 E-0.400 F2400  ; retract
M900 K0.0700  ; row 35  layer 2
G1 X165.000 Y150.000 F7200
G1 E0.400 F2400  ; unretract
G1 X140.000 E1.1433 F1200
G1 X110.000 E1.3720 F6000
G1 X85.000 E1.1433 F1200
G1 E-0.400 F2400  ; retract
M900 K0.0680  ; row 34  layer 2
G1 X165.000 Y147.000 F7200
G1 E0.400 F2400  ; unretract
G1 X140.000 E1.1433 F1200
G1 X110.000 E1.3720 F6000
G1 X85.000 E1.1433 F1200
G1 E-0.400 F2400  ; retract
M900 K0.0660  ; row 33  layer 2
G1 X165.000 Y144.000 F7200
G1 E0.400 F2400  ; unretract
G1 X140.000 E1.1433 F1200
G1 X110.000 E1.3720 F6000
G1 X85.000 E1.1433 F1200
G1 E-0.400 F2400  ; retract
M900 K0.0640  ; row 32  layer 2
G1 X165.000 Y141.000 F7200
G1 E0.400 F2400  ; unretract
G1 X140.000 E1.1433 F1200
G1 X110.000 E1.3720 F6000
G1 X85.000 E1.1433 F1200
G1 E-0.400 F2400  ; retract
M900 K0.0620  ; row 31  layer 2
G1 X165.000 Y138.000 F7200
G1 E0.400 F2400  ; unretract
G1 X140.000 E1.1433 F1200
G1 X110.000 E1.3720 F6000
G1 X85.000 E1.1433 F1200
G1 E-0.400 F2400  ; retract
M900 K0.0600  ; row 30  layer 2
G1 X165.000 Y135.000 F7200
G1 E0.400 F2400  ; unretract
G1 X140.000 E1.1433 F1200
G1 X110.000 E1.3720 F6000
G1 X85.000 E1.1433 F1200
G1 E-0.400 F2400  ; retract
M900 K0.0580  ; row 29  layer 2
G1 X165.000 Y132.000 F7200
G1 E0.400 F2400  ; unretract
G1 X140.000 E1.1433 F1200
G1 X110.000 E1.3720 F6000
G1 X85.000 E1.1433 F1200
G1 E-0.400 F2400  ; retract
M900 K0.0560  ; row 28  layer 2
G1 X165.000 Y129.000 F7200
G1 E0.400 F2400  ; unretract
G1 X140.000 E1.1433 F1200
G1 X110.000 E1.3720 F6000
G1 X85.000 E1.1433 F1200
G1 E-0.400 F2400  ; retract
M900 K0.0540  ; row 27  layer 2
G1 X165.000 Y126.000 F7200
G1 E0.400 F2400  ; unretract
G1 X140.000 E1.1433 F1200
G1 X110.000 E1.3720 F6000
G1 X85.000 E1.1433 F1200
G1 E-0.400 F2400  ; retract
M900 K0.0520  ; row 26  layer 2
G1 X165.000 Y123.000 F7200
G1 E0.400 F2400  ; unretract
G1 X140.000 E1.1433 F1200
G1 X110.000 E1.3720 F6000
G1 X85.000 E1.1433 F1200
G1 E-0.400 F2400  ; retract
M900 K0.0500  ; row 25  layer 2
G1 X165.000 Y120.000 F7200
G1 E0.400 F2400  ; unretract
G1 X140.000 E1.1433 F1200
G1 X110.000 E1.3720 F6000
G1 X85.000 E1.1433 F1200
G1 E-0.400 F2400  ; retract
M900 K0.0480  ; row 24  layer 2
G1 X165.000 Y117.000 F7200
G1 E0.400 F2400  ; unretract
G1 X140.000 E1.1433 F1200
G1 X110.000 E1.3720 F6000
G1 X85.000 E1.1433 F1200
G1 E-0.400 F2400  ; retract
M900 K0.0460  ; row 23  layer 2
G1 X165.000 Y114.000 F7200
G1 E0.400 F2400  ; unretract
G1 X140.000 E1.1433 F1200
G1 X110.000 E1.3720 F6000
G1 X85.000 E1.1433 F1200
G1 E-0.400 F2400  ; retract
M900 K0.0440  ; row 22  layer 2
G1 X165.000 Y111.000 F7200
G1 E0.400 F2400  ; unretract
G1 X140.000 E1.1433 F1200
G1 X110.000 E1.3720 F6000
G1 X85.000 E1.1433 F1200
G1 E-0.400 F2400  ; retract
M900 K0.0420  ; row 21  layer 2
G1 X165.000 Y108.000 F7200
G1 E0.400 F2400  ; unretract
G1 X140.000 E1.1433 F1200
G1 X110.000 E1.3720 F6000
G1 X85.000 E1.1433 F1200
G1 E-0.400 F2400  ; retract
M900 K0.0400  ; row 20  layer 2
G1 X165.000 Y105.000 F7200
G1 E0.400 F2400  ; unretract
G1 X140.000 E1.1433 F1200
G1 X110.000 E1.3720 F6000
G1 X85.000 E1.1433 F1200
G1 E-0.400 F2400  ; retract
M900 K0.0380  ; row 19  layer 2
G1 X165.000 Y102.000 F7200
G1 E0.400 F2400  ; unretract
G1 X140.000 E1.1433 F1200
G1 X110.000 E1.3720 F6000
G1 X85.000 E1.1433 F1200
G1 E-0.400 F2400  ; retract
M900 K0.0360  ; row 18  layer 2
G1 X165.000 Y99.000 F7200
G1 E0.400 F2400  ; unretract
G1 X140.000 E1.1433 F1200
G1 X110.000 E1.3720 F6000
G1 X85.000 E1.1433 F1200
G1 E-0.400 F2400  ; retract
M900 K0.0340  ; row 17  layer 2
G1 X165.000 Y96.000 F7200
G1 E0.400 F2400  ; unretract
G1 X140.000 E1.1433 F1200
G1 X110.000 E1.3720 F6000
G1 X85.000 E1.1433 F1200
G1 E-0.400 F2400  ; retract
M900 K0.0320  ; row 16  layer 2
G1 X165.000 Y93.000 F7200
G1 E0.400 F2400  ; unretract
G1 X140.000 E1.1433 F1200
G1 X110.000 E1.3720 F6000
G1 X85.000 E1.1433 F1200
G1 E-0.400 F2400  ; retract
M900 K0.0300  ; row 15  layer 2
G1 X165.000 Y90.000 F7200
G1 E0.400 F2400  ; unretract
G1 X140.000 E1.1433 F1200
G1 X110.000 E1.3720 F6000
G1 X85.000 E1.1433 F1200
G1 E-0.400 F2400  ; retract
M900 K0.0280  ; row 14  layer 2
G1 X165.000 Y87.000 F7200
G1 E0.400 F2400  ; unretract
G1 X140.000 E1.1433 F1200
G1 X110.000 E1.3720 F6000
G1 X85.000 E1.1433 F1200
G1 E-0.400 F2400  ; retract
M900 K0.0260  ; row 13  layer 2
G1 X165.000 Y84.000 F7200
G1 E0.400 F2400  ; unretract
G1 X140.000 E1.1433 F1200
G1 X110.000 E1.3720 F6000
G1 X85.000 E1.1433 F1200
G1 E-0.400 F2400  ; retract
M900 K0.0240  ; row 12  layer 2
G1 X165.000 Y81.000 F7200
G1 E0.400 F2400  ; unretract
G1 X140.000 E1.1433 F1200
G1 X110.000 E1.3720 F6000
G1 X85.000 E1.1433 F1200
G1 E-0.400 F2400  ; retract
M900 K0.0220  ; row 11  layer 2
G1 X165.000 Y78.000 F7200
G1 E0.400 F2400  ; unretract
G1 X140.000 E1.1433 F1200
G1 X110.000 E1.3720 F6000
G1 X85.000 E1.1433 F1200
G1 E-0.400 F2400  ; retract
M900 K0.0200  ; row 10  layer 2
G1 X165.000 Y75.000 F7200
G1 E0.400 F2400  ; unretract
G1 X140.000 E1.1433 F1200
G1 X110.000 E1.3720 F6000
G1 X85.000 E1.1433 F1200
G1 E-0.400 F2400  ; retract
M900 K0.0180  ; row 9  layer 2
G1 X165.000 Y72.000 F7200
G1 E0.400 F2400  ; unretract
G1 X140.000 E1.1433 F1200
G1 X110.000 E1.3720 F6000
G1 X85.000 E1.1433 F1200
G1 E-0.400 F2400  ; retract
M900 K0.0160  ; row 8  layer 2
G1 X165.000 Y69.000 F7200
G1 E0.400 F2400  ; unretract
G1 X140.000 E1.1433 F1200
G1 X110.000 E1.3720 F6000
G1 X85.000 E1.1433 F1200
G1 E-0.400 F2400  ; retract
M900 K0.0140  ; row 7  layer 2
G1 X165.000 Y66.000 F7200
G1 E0.400 F2400  ; unretract
G1 X140.000 E1.1433 F1200
G1 X110.000 E1.3720 F6000
G1 X85.000 E1.1433 F1200
G1 E-0.400 F2400  ; retract
M900 K0.0120  ; row 6  layer 2
G1 X165.000 Y63.000 F7200
G1 E0.400 F2400  ; unretract
G1 X140.000 E1.1433 F1200
G1 X110.000 E1.3720 F6000
G1 X85.000 E1.1433 F1200
G1 E-0.400 F2400  ; retract
M900 K0.0100  ; row 5  layer 2
G1 X165.000 Y60.000 F7200
G1 E0.400 F2400  ; unretract
G1 X140.000 E1.1433 F1200
G1 X110.000 E1.3720 F6000
G1 X85.000 E1.1433 F1200
G1 E-0.400 F2400  ; retract
M900 K0.0080  ; row 4  layer 2
G1 X165.000 Y57.000 F7200
G1 E0.400 F2400  ; unretract
G1 X140.000 E1.1433 F1200
G1 X110.000 E1.3720 F6000
G1 X85.000 E1.1433 F1200
G1 E-0.400 F2400  ; retract
M900 K0.0060  ; row 3  layer 2
G1 X165.000 Y54.000 F7200
G1 E0.400 F2400  ; unretract
G1 X140.000 E1.1433 F1200
G1 X110.000 E1.3720 F6000
G1 X85.000 E1.1433 F1200
G1 E-0.400 F2400  ; retract
M900 K0.0040  ; row 2  layer 2
G1 X165.000 Y51.000 F7200
G1 E0.400 F2400  ; unretract
G1 X140.000 E1.1433 F1200
G1 X110.000 E1.3720 F6000
G1 X85.000 E1.1433 F1200
G1 E-0.400 F2400  ; retract
M900 K0.0020  ; row 1  layer 2
G1 X165.000 Y48.000 F7200
G1 E0.400 F2400  ; unretract
G1 X140.000 E1.1433 F1200
G1 X110.000 E1.3720 F6000
G1 X85.000 E1.1433 F1200
G1 E-0.400 F2400  ; retract
M900 K0.0000  ; row 0  layer 2
G1 X165.000 Y45.000 F7200
G1 E0.400 F2400  ; unretract
G1 X140.000 E1.1433 F1200
G1 X110.000 E1.3720 F6000
G1 X85.000 E1.1433 F1200
G1 E-0.400 F2400  ; retract
; --- Layer 3 / 3  (Z=0.600) ---
G1 Z0.600 F600
M900 K0.0000  ; row 0  layer 3
G1 X85.000 Y45.000 F7200
G1 E0.400 F2400  ; unretract
G1 X110.000 E1.1433 F1200
G1 X140.000 E1.3720 F6000
G1 X165.000 E1.1433 F1200
G1 E-0.400 F2400  ; retract
M900 K0.0020  ; row 1  layer 3
G1 X85.000 Y48.000 F7200
G1 E0.400 F2400  ; unretract
G1 X110.000 E1.1433 F1200
G1 X140.000 E1.3720 F6000
G1 X165.000 E1.1433 F1200
G1 E-0.400 F2400  ; retract
M900 K0.0040  ; row 2  layer 3
G1 X85.000 Y51.000 F7200
G1 E0.400 F2400  ; unretract
G1 X110.000 E1.1433 F1200
G1 X140.000 E1.3720 F6000
G1 X165.000 E1.1433 F1200
G1 E-0.400 F2400  ; retract
M900 K0.0060  ; row 3  layer 3
G1 X85.000 Y54.000 F7200
G1 E0.400 F2400  ; unretract
G1 X110.000 E1.1433 F1200
G1 X140.000 E1.3720 F6000
G1 X165.000 E1.1433 F1200
G1 E-0.400 F2400  ; retract
M900 K0.0080  ; row 4  layer 3
G1 X85.000 Y57.000 F7200
G1 E0.400 F2400  ; unretract
G1 X110.000 E1.1433 F1200
G1 X140.000 E1.3720 F6000
G1 X165.000 E1.1433 F1200
G1 E-0.400 F2400  ; retract
M900 K0.0100  ; row 5  layer 3
G1 X85.000 Y60.000 F7200
G1 E0.400 F2400  ; unretract
G1 X110.000 E1.1433 F1200
G1 X140.000 E1.3720 F6000
G1 X165.000 E1.1433 F1200
G1 E-0.400 F2400  ; retract
M900 K0.0120  ; row 6  layer 3
G1 X85.000 Y63.000 F7200
G1 E0.400 F2400  ; unretract
G1 X110.000 E1.1433 F1200
G1 X140.000 E1.3720 F6000
G1 X165.000 E1.1433 F1200
G1 E-0.400 F2400  ; retract
M900 K0.0140  ; row 7  layer 3
G1 X85.000 Y66.000 F7200
G1 E0.400 F2400  ; unretract
G1 X110.000 E1.1433 F1200
G1 X140.000 E1.3720 F6000
G1 X165.000 E1.1433 F1200
G1 E-0.400 F2400  ; retract
M900 K0.0160  ; row 8  layer 3
G1 X85.000 Y69.000 F7200
G1 E0.400 F2400  ; unretract
G1 X110.000 E1.1433 F1200
G1 X140.000 E1.3720 F6000
G1 X165.000 E1.1433 F1200
G1 E-0.400 F2400  ; retract
M900 K0.0180  ; row 9  layer 3
G1 X85.000 Y72.000 F7200
G1 E0.400 F2400  ; unretract
G1 X110.000 E1.1433 F1200
G1 X140.000 E1.3720 F6000
G1 X165.000 E1.1433 F1200
G1 E-0.400 F2400  ; retract
M900 K0.0200  ; row 10  layer 3
G1 X85.000 Y75.000 F7200
G1 E0.400 F2400  ; unretract
G1 X110.000 E1.1433 F1200
G1 X140.000 E1.3720 F6000
G1 X165.000 E1.1433 F1200
G1 E-0.400 F2400  ; retract
M900 K0.0220  ; row 11  layer 3
G1 X85.000 Y78.000 F7200
G1 E0.400 F2400  ; unretract
G1 X110.000 E1.1433 F1200
G1 X140.000 E1.3720 F6000
G1 X165.000 E1.1433 F1200
G1 E-0.400 F2400  ; retract
M900 K0.0240  ; row 12  layer 3
G1 X85.000 Y81.000 F7200
G1 E0.400 F2400  ; unretract
G1 X110.000 E1.1433 F1200
G1 X140.000 E1.3720 F6000
G1 X165.000 E1.1433 F1200
G1 E-0.400 F2400  ; retract
M900 K0.0260  ; row 13  layer 3
G1 X85.000 Y84.000 F7200
G1 E0.400 F2400  ; unretract
G1 X110.000 E1.1433 F1200
G1 X140.000 E1.3720 F6000
G1 X165.000 E1.1433 F1200
G1 E-0.400 F2400  ; retract
M900 K0.0280  ; row 14  layer 3
G1 X85.000 Y87.000 F7200
G1 E0.400 F2400  ; unretract
G1 X110.000 E1.1433 F1200
G1 X140.000 E1.3720 F6000
G1 X165.000 E1.1433 F1200
G1 E-0.400 F2400  ; retract
M900 K0.0300  ; row 15  layer 3
G1 X85.000 Y90.000 F7200
G1 E0.400 F2400  ; unretract
G1 X110.000 E1.1433 F1200
G1 X140.000 E1.3720 F6000
G1 X165.000 E1.1433 F1200
G1 E-0.400 F2400  ; retract
M900 K0.0320  ; row 16  layer 3
G1 X85.000 Y93.000 F7200
G1 E0.400 F2400  ; unretract
G1 X110.000 E1.1433 F1200
G1 X140.000 E1.3720 F6000
G1 X165.000 E1.1433 F1200
G1 E-0.400 F2400  ; retract
M900 K0.0340  ; row 17  layer 3
G1 X85.000 Y96.000 F7200
G1 E0.400 F2400  ; unretract
G1 X110.000 E1.1433 F1200
G1 X140.000 E1.3720 F6000
G1 X165.000 E1.1433 F1200
G1 E-0.400 F2400  ; retract
M900 K0.0360  ; row 18  layer 3
G1 X85.000 Y99.000 F7200
G1 E0.400 F2400  ; unretract
G1 X110.000 E1.1433 F1200
G1 X140.000 E1.3720 F6000
G1 X165.000 E1.1433 F1200
G1 E-0.400 F2400  ; retract
M900 K0.0380  ; row 19  layer 3
G1 X85.000 Y102.000 F7200
G1 E0.400 F2400  ; unretract
G1 X110.000 E1.1433 F1200
G1 X140.000 E1.3720 F6000
G1 X165.000 E1.1433 F1200
G1 E-0.400 F2400  ; retract
M900 K0.0400  ; row 20  layer 3
G1 X85.000 Y105.000 F7200
G1 E0.400 F2400  ; unretract
G1 X110.000 E1.1433 F1200
G1 X140.000 E1.3720 F6000
G1 X165.000 E1.1433 F1200
G1 E-0.400 F2400  ; retract
M900 K0.0420  ; row 21  layer 3
G1 X85.000 Y108.000 F7200
G1 E0.400 F2400  ; unretract
G1 X110.000 E1.1433 F1200
G1 X140.000 E1.3720 F6000
G1 X165.000 E1.1433 F1200
G1 E-0.400 F2400  ; retract
M900 K0.0440  ; row 22  layer 3
G1 X85.000 Y111.000 F7200
G1 E0.400 F2400  ; unretract
G1 X110.000 E1.1433 F1200
G1 X140.000 E1.3720 F6000
G1 X165.000 E1.1433 F1200
G1 E-0.400 F2400  ; retract
M900 K0.0460  ; row 23  layer 3
G1 X85.000 Y114.000 F7200
G1 E0.400 F2400  ; unretract
G1 X110.000 E1.1433 F1200
G1 X140.000 E1.3720 F6000
G1 X165.000 E1.1433 F1200
G1 E-0.400 F2400  ; retract
M900 K0.0480  ; row 24  layer 3
G1 X85.000 Y117.000 F7200
G1 E0.400 F2400  ; unretract
G1 X110.000 E1.1433 F1200
G1 X140.000 E1.3720 F6000
G1 X165.000 E1.1433 F1200
G1 E-0.400 F2400  ; retract
M900 K0.0500  ; row 25  layer 3
G1 X85.000 Y120.000 F7200
G1 E0.400 F2400  ; unretract
G1 X110.000 E1.1433 F1200
G1 X140.000 E1.3720 F6000
G1 X165.000 E1.1433 F1200
G1 E-0.400 F2400  ; retract
M900 K0.0520  ; row 26  layer 3
G1 X85.000 Y123.000 F7200
G1 E0.400 F2400  ; unretract
G1 X110.000 E1.1433 F1200
G1 X140.000 E1.3720 F6000
G1 X165.000 E1.1433 F1200
G1 E-0.400 F2400  ; retract
M900 K0.0540  ; row 27  layer 3
G1 X85.000 Y126.000 F7200
G1 E0.400 F2400  ; unretract
G1 X110.000 E1.1433 F1200
G1 X140.000 E1.3720 F6000
G1 X165.000 E1.1433 F1200
G1 E-0.400 F2400  ; retract
M900 K0.0560  ; row 28  layer 3
G1 X85.000 Y129.000 F7200
G1 E0.400 F2400  ; unretract
G1 X110.000 E1.1433 F1200
G1 X140.000 E1.3720 F6000
G1 X165.000 E1.1433 F1200
G1 E-0.400 F2400  ; retract
M900 K0.0580  ; row 29  layer 3
G1 X85.000 Y132.000 F7200
G1 E0.400 F2400  ; unretract
G1 X110.000 E1.1433 F1200
G1 X140.000 E1.3720 F6000
G1 X165.000 E1.1433 F1200
G1 E-0.400 F2400  ; retract
M900 K0.0600  ; row 30  layer 3
G1 X85.000 Y135.000 F7200
G1 E0.400 F2400  ; unretract
G1 X110.000 E1.1433 F1200
G1 X140.000 E1.3720 F6000
G1 X165.000 E1.1433 F1200
G1 E-0.400 F2400  ; retract
M900 K0.0620  ; row 31  layer 3
G1 X85.000 Y138.000 F7200
G1 E0.400 F2400  ; unretract
G1 X110.000 E1.1433 F1200
G1 X140.000 E1.3720 F6000
G1 X165.000 E1.1433 F1200
G1 E-0.400 F2400  ; retract
M900 K0.0640  ; row 32  layer 3
G1 X85.000 Y141.000 F7200
G1 E0.400 F2400  ; unretract
G1 X110.000 E1.1433 F1200
G1 X140.000 E1.3720 F6000
G1 X165.000 E1.1433 F1200
G1 E-0.400 F2400  ; retract
M900 K0.0660  ; row 33  layer 3
G1 X85.000 Y144.000 F7200
G1 E0.400 F2400  ; unretract
G1 X110.000 E1.1433 F1200
G1 X140.000 E1.3720 F6000
G1 X165.000 E1.1433 F1200
G1 E-0.400 F2400  ; retract
M900 K0.0680  ; row 34  layer 3
G1 X85.000 Y147.000 F7200
G1 E0.400 F2400  ; unretract
G1 X110.000 E1.1433 F1200
G1 X140.000 E1.3720 F6000
G1 X165.000 E1.1433 F1200
G1 E-0.400 F2400  ; retract
M900 K0.0700  ; row 35  layer 3
G1 X85.000 Y150.000 F7200
G1 E0.400 F2400  ; unretract
G1 X110.000 E1.1433 F1200
G1 X140.000 E1.3720 F6000
G1 X165.000 E1.1433 F1200
G1 E-0.400 F2400  ; retract
M900 K0.0720  ; row 36  layer 3
G1 X85.000 Y153.000 F7200
G1 E0.400 F2400  ; unretract
G1 X110.000 E1.1433 F1200
G1 X140.000 E1.3720 F6000
G1 X165.000 E1.1433 F1200
G1 E-0.400 F2400  ; retract
M900 K0.0740  ; row 37  layer 3
G1 X85.000 Y156.000 F7200
G1 E0.400 F2400  ; unretract
G1 X110.000 E1.1433 F1200
G1 X140.000 E1.3720 F6000
G1 X165.000 E1.1433 F1200
G1 E-0.400 F2400  ; retract
M900 K0.0760  ; row 38  layer 3
G1 X85.000 Y159.000 F7200
G1 E0.400 F2400  ; unretract
G1 X110.000 E1.1433 F1200
G1 X140.000 E1.3720 F6000
G1 X165.000 E1.1433 F1200
G1 E-0.400 F2400  ; retract
M900 K0.0780  ; row 39  layer 3
G1 X85.000 Y162.000 F7200
G1 E0.400 F2400  ; unretract
G1 X110.000 E1.1433 F1200
G1 X140.000 E1.3720 F6000
G1 X165.000 E1.1433 F1200
G1 E-0.400 F2400  ; retract
M900 K0.0800  ; row 40  layer 3
G1 X85.000 Y165.000 F7200
G1 E0.400 F2400  ; unretract
G1 X110.000 E1.1433 F1200
G1 X140.000 E1.3720 F6000
G1 X165.000 E1.1433 F1200
G1 E-0.400 F2400  ; retract
; --- End sequence ---
G1 Z30.00 F600  ; lift
G1 X10 Y200 F6000    ; park near front
M104 S0              ; hotend off
M140 S0              ; bed off
M107                 ; fan off
M84                  ; steppers off
M900 K0.0000  ; restore linear-advance K-factor
