; Prusa PA test sweep (36 K values, K 0.0350..0.0700 step 0.001)
; Generated 2026-04-22 13:33:36 by pa_dev/tools/generate_pa_test.py
; Filament 1.75 mm, nozzle 0.4 mm, line 0.55 mm × 0.2 mm
; Slow 20.0 mm/s · Fast 100.0 mm/s · Layers 3
;
; --- Start sequence ---
M140 S60
M104 S215
G90                  ; absolute XYZ
M83                  ; relative E
G21                  ; mm
M107                 ; part-cooling fan off for first layer
G28                  ; home all axes
G29                  ; bed mesh / MBL (buddy firmware handles profile)
M190 S60     ; wait for bed
M109 S215  ; wait for hotend
M204 P2500 R1500 T3000
; --- M573 baseline pressure capture (pre-print) ---
G1 Z5.000 F600        ; raise Z for safety
G1 X10.000 Y5.000 F3000  ; park near front-left
M573                  ; capture loadcell-derived pressure curve (~5 s)
G1 Z0.200 F600
G1 X20 Y15.500 F7200
G1 X120.0 Y15.500 E4.5733 F1200  ; purge line
G1 E-0.400 F2400  ; retract
G1 X130.0 F7200  ; wipe
; --- Layer 1 / 3  (Z=0.200) ---
G1 Z0.200 F600
; label 0.035 (K=0.0350) row 0
G1 X61.000 Y50.500 F7200
G1 E0.400 F2400  ; unretract (label)
G1 X64.000 Y50.500 E0.1372 F1200
G1 X64.000 Y54.500 E0.1829 F1200
G1 X61.000 Y54.500 E0.1372 F1200
G1 X61.000 Y50.500 E0.1829 F1200
G1 E-0.400 F2400  ; retract (label)
G1 X65.750 Y50.500 F7200
G1 E0.400 F2400  ; unretract (label)
G1 X67.250 Y50.500 E0.0686 F1200
G1 E-0.400 F2400  ; retract (label)
G1 X69.000 Y50.500 F7200
G1 E0.400 F2400  ; unretract (label)
G1 X72.000 Y50.500 E0.1372 F1200
G1 X72.000 Y54.500 E0.1829 F1200
G1 X69.000 Y54.500 E0.1372 F1200
G1 X69.000 Y50.500 E0.1829 F1200
G1 E-0.400 F2400  ; retract (label)
G1 X73.000 Y54.500 F7200
G1 E0.400 F2400  ; unretract (label)
G1 X76.000 Y54.500 E0.1372 F1200
G1 X76.000 Y52.500 E0.0915 F1200
G1 X73.000 Y52.500 E0.1372 F1200
G1 X76.000 Y52.500 E0.1372 F1200
G1 X76.000 Y50.500 E0.0915 F1200
G1 X73.000 Y50.500 E0.1372 F1200
G1 E-0.400 F2400  ; retract (label)
G1 X80.000 Y54.500 F7200
G1 E0.400 F2400  ; unretract (label)
G1 X77.000 Y54.500 E0.1372 F1200
G1 X77.000 Y52.500 E0.0915 F1200
G1 X80.000 Y52.500 E0.1372 F1200
G1 X80.000 Y50.500 E0.0915 F1200
G1 X77.000 Y50.500 E0.1372 F1200
G1 E-0.400 F2400  ; retract (label)
M900 K0.0350  ; row 0  layer 1
G1 X85.000 Y52.500 F7200
G1 E0.400 F2400  ; unretract
G1 X110.000 E1.1433 F1200
G1 X140.000 E1.3720 F6000
G1 X165.000 E1.1433 F1200
G1 E-0.400 F2400  ; retract
M900 K0.0360  ; row 1  layer 1
G1 X85.000 Y55.500 F7200
G1 E0.400 F2400  ; unretract
G1 X110.000 E1.1433 F1200
G1 X140.000 E1.3720 F6000
G1 X165.000 E1.1433 F1200
G1 E-0.400 F2400  ; retract
M900 K0.0370  ; row 2  layer 1
G1 X85.000 Y58.500 F7200
G1 E0.400 F2400  ; unretract
G1 X110.000 E1.1433 F1200
G1 X140.000 E1.3720 F6000
G1 X165.000 E1.1433 F1200
G1 E-0.400 F2400  ; retract
M900 K0.0380  ; row 3  layer 1
G1 X85.000 Y61.500 F7200
G1 E0.400 F2400  ; unretract
G1 X110.000 E1.1433 F1200
G1 X140.000 E1.3720 F6000
G1 X165.000 E1.1433 F1200
G1 E-0.400 F2400  ; retract
M900 K0.0390  ; row 4  layer 1
G1 X85.000 Y64.500 F7200
G1 E0.400 F2400  ; unretract
G1 X110.000 E1.1433 F1200
G1 X140.000 E1.3720 F6000
G1 X165.000 E1.1433 F1200
G1 E-0.400 F2400  ; retract
; label 0.040 (K=0.0400) row 5
G1 X61.000 Y65.500 F7200
G1 E0.400 F2400  ; unretract (label)
G1 X64.000 Y65.500 E0.1372 F1200
G1 X64.000 Y69.500 E0.1829 F1200
G1 X61.000 Y69.500 E0.1372 F1200
G1 X61.000 Y65.500 E0.1829 F1200
G1 E-0.400 F2400  ; retract (label)
G1 X65.750 Y65.500 F7200
G1 E0.400 F2400  ; unretract (label)
G1 X67.250 Y65.500 E0.0686 F1200
G1 E-0.400 F2400  ; retract (label)
G1 X69.000 Y65.500 F7200
G1 E0.400 F2400  ; unretract (label)
G1 X72.000 Y65.500 E0.1372 F1200
G1 X72.000 Y69.500 E0.1829 F1200
G1 X69.000 Y69.500 E0.1372 F1200
G1 X69.000 Y65.500 E0.1829 F1200
G1 E-0.400 F2400  ; retract (label)
G1 X73.000 Y69.500 F7200
G1 E0.400 F2400  ; unretract (label)
G1 X73.000 Y67.500 E0.0915 F1200
G1 X76.000 Y67.500 E0.1372 F1200
G1 X76.000 Y69.500 E0.0915 F1200
G1 X76.000 Y65.500 E0.1829 F1200
G1 E-0.400 F2400  ; retract (label)
G1 X77.000 Y65.500 F7200
G1 E0.400 F2400  ; unretract (label)
G1 X80.000 Y65.500 E0.1372 F1200
G1 X80.000 Y69.500 E0.1829 F1200
G1 X77.000 Y69.500 E0.1372 F1200
G1 X77.000 Y65.500 E0.1829 F1200
G1 E-0.400 F2400  ; retract (label)
M900 K0.0400  ; row 5  layer 1
G1 X85.000 Y67.500 F7200
G1 E0.400 F2400  ; unretract
G1 X110.000 E1.1433 F1200
G1 X140.000 E1.3720 F6000
G1 X165.000 E1.1433 F1200
G1 E-0.400 F2400  ; retract
M900 K0.0410  ; row 6  layer 1
G1 X85.000 Y70.500 F7200
G1 E0.400 F2400  ; unretract
G1 X110.000 E1.1433 F1200
G1 X140.000 E1.3720 F6000
G1 X165.000 E1.1433 F1200
G1 E-0.400 F2400  ; retract
M900 K0.0420  ; row 7  layer 1
G1 X85.000 Y73.500 F7200
G1 E0.400 F2400  ; unretract
G1 X110.000 E1.1433 F1200
G1 X140.000 E1.3720 F6000
G1 X165.000 E1.1433 F1200
G1 E-0.400 F2400  ; retract
M900 K0.0430  ; row 8  layer 1
G1 X85.000 Y76.500 F7200
G1 E0.400 F2400  ; unretract
G1 X110.000 E1.1433 F1200
G1 X140.000 E1.3720 F6000
G1 X165.000 E1.1433 F1200
G1 E-0.400 F2400  ; retract
M900 K0.0440  ; row 9  layer 1
G1 X85.000 Y79.500 F7200
G1 E0.400 F2400  ; unretract
G1 X110.000 E1.1433 F1200
G1 X140.000 E1.3720 F6000
G1 X165.000 E1.1433 F1200
G1 E-0.400 F2400  ; retract
; label 0.045 (K=0.0450) row 10
G1 X61.000 Y80.500 F7200
G1 E0.400 F2400  ; unretract (label)
G1 X64.000 Y80.500 E0.1372 F1200
G1 X64.000 Y84.500 E0.1829 F1200
G1 X61.000 Y84.500 E0.1372 F1200
G1 X61.000 Y80.500 E0.1829 F1200
G1 E-0.400 F2400  ; retract (label)
G1 X65.750 Y80.500 F7200
G1 E0.400 F2400  ; unretract (label)
G1 X67.250 Y80.500 E0.0686 F1200
G1 E-0.400 F2400  ; retract (label)
G1 X69.000 Y80.500 F7200
G1 E0.400 F2400  ; unretract (label)
G1 X72.000 Y80.500 E0.1372 F1200
G1 X72.000 Y84.500 E0.1829 F1200
G1 X69.000 Y84.500 E0.1372 F1200
G1 X69.000 Y80.500 E0.1829 F1200
G1 E-0.400 F2400  ; retract (label)
G1 X73.000 Y84.500 F7200
G1 E0.400 F2400  ; unretract (label)
G1 X73.000 Y82.500 E0.0915 F1200
G1 X76.000 Y82.500 E0.1372 F1200
G1 X76.000 Y84.500 E0.0915 F1200
G1 X76.000 Y80.500 E0.1829 F1200
G1 E-0.400 F2400  ; retract (label)
G1 X80.000 Y84.500 F7200
G1 E0.400 F2400  ; unretract (label)
G1 X77.000 Y84.500 E0.1372 F1200
G1 X77.000 Y82.500 E0.0915 F1200
G1 X80.000 Y82.500 E0.1372 F1200
G1 X80.000 Y80.500 E0.0915 F1200
G1 X77.000 Y80.500 E0.1372 F1200
G1 E-0.400 F2400  ; retract (label)
M900 K0.0450  ; row 10  layer 1
G1 X85.000 Y82.500 F7200
G1 E0.400 F2400  ; unretract
G1 X110.000 E1.1433 F1200
G1 X140.000 E1.3720 F6000
G1 X165.000 E1.1433 F1200
G1 E-0.400 F2400  ; retract
M900 K0.0460  ; row 11  layer 1
G1 X85.000 Y85.500 F7200
G1 E0.400 F2400  ; unretract
G1 X110.000 E1.1433 F1200
G1 X140.000 E1.3720 F6000
G1 X165.000 E1.1433 F1200
G1 E-0.400 F2400  ; retract
M900 K0.0470  ; row 12  layer 1
G1 X85.000 Y88.500 F7200
G1 E0.400 F2400  ; unretract
G1 X110.000 E1.1433 F1200
G1 X140.000 E1.3720 F6000
G1 X165.000 E1.1433 F1200
G1 E-0.400 F2400  ; retract
M900 K0.0480  ; row 13  layer 1
G1 X85.000 Y91.500 F7200
G1 E0.400 F2400  ; unretract
G1 X110.000 E1.1433 F1200
G1 X140.000 E1.3720 F6000
G1 X165.000 E1.1433 F1200
G1 E-0.400 F2400  ; retract
M900 K0.0490  ; row 14  layer 1
G1 X85.000 Y94.500 F7200
G1 E0.400 F2400  ; unretract
G1 X110.000 E1.1433 F1200
G1 X140.000 E1.3720 F6000
G1 X165.000 E1.1433 F1200
G1 E-0.400 F2400  ; retract
; label 0.050 (K=0.0500) row 15
G1 X61.000 Y95.500 F7200
G1 E0.400 F2400  ; unretract (label)
G1 X64.000 Y95.500 E0.1372 F1200
G1 X64.000 Y99.500 E0.1829 F1200
G1 X61.000 Y99.500 E0.1372 F1200
G1 X61.000 Y95.500 E0.1829 F1200
G1 E-0.400 F2400  ; retract (label)
G1 X65.750 Y95.500 F7200
G1 E0.400 F2400  ; unretract (label)
G1 X67.250 Y95.500 E0.0686 F1200
G1 E-0.400 F2400  ; retract (label)
G1 X69.000 Y95.500 F7200
G1 E0.400 F2400  ; unretract (label)
G1 X72.000 Y95.500 E0.1372 F1200
G1 X72.000 Y99.500 E0.1829 F1200
G1 X69.000 Y99.500 E0.1372 F1200
G1 X69.000 Y95.500 E0.1829 F1200
G1 E-0.400 F2400  ; retract (label)
G1 X76.000 Y99.500 F7200
G1 E0.400 F2400  ; unretract (label)
G1 X73.000 Y99.500 E0.1372 F1200
G1 X73.000 Y97.500 E0.0915 F1200
G1 X76.000 Y97.500 E0.1372 F1200
G1 X76.000 Y95.500 E0.0915 F1200
G1 X73.000 Y95.500 E0.1372 F1200
G1 E-0.400 F2400  ; retract (label)
G1 X77.000 Y95.500 F7200
G1 E0.400 F2400  ; unretract (label)
G1 X80.000 Y95.500 E0.1372 F1200
G1 X80.000 Y99.500 E0.1829 F1200
G1 X77.000 Y99.500 E0.1372 F1200
G1 X77.000 Y95.500 E0.1829 F1200
G1 E-0.400 F2400  ; retract (label)
M900 K0.0500  ; row 15  layer 1
G1 X85.000 Y97.500 F7200
G1 E0.400 F2400  ; unretract
G1 X110.000 E1.1433 F1200
G1 X140.000 E1.3720 F6000
G1 X165.000 E1.1433 F1200
G1 E-0.400 F2400  ; retract
M900 K0.0510  ; row 16  layer 1
G1 X85.000 Y100.500 F7200
G1 E0.400 F2400  ; unretract
G1 X110.000 E1.1433 F1200
G1 X140.000 E1.3720 F6000
G1 X165.000 E1.1433 F1200
G1 E-0.400 F2400  ; retract
M900 K0.0520  ; row 17  layer 1
G1 X85.000 Y103.500 F7200
G1 E0.400 F2400  ; unretract
G1 X110.000 E1.1433 F1200
G1 X140.000 E1.3720 F6000
G1 X165.000 E1.1433 F1200
G1 E-0.400 F2400  ; retract
M900 K0.0530  ; row 18  layer 1
G1 X85.000 Y106.500 F7200
G1 E0.400 F2400  ; unretract
G1 X110.000 E1.1433 F1200
G1 X140.000 E1.3720 F6000
G1 X165.000 E1.1433 F1200
G1 E-0.400 F2400  ; retract
M900 K0.0540  ; row 19  layer 1
G1 X85.000 Y109.500 F7200
G1 E0.400 F2400  ; unretract
G1 X110.000 E1.1433 F1200
G1 X140.000 E1.3720 F6000
G1 X165.000 E1.1433 F1200
G1 E-0.400 F2400  ; retract
; label 0.055 (K=0.0550) row 20
G1 X61.000 Y110.500 F7200
G1 E0.400 F2400  ; unretract (label)
G1 X64.000 Y110.500 E0.1372 F1200
G1 X64.000 Y114.500 E0.1829 F1200
G1 X61.000 Y114.500 E0.1372 F1200
G1 X61.000 Y110.500 E0.1829 F1200
G1 E-0.400 F2400  ; retract (label)
G1 X65.750 Y110.500 F7200
G1 E0.400 F2400  ; unretract (label)
G1 X67.250 Y110.500 E0.0686 F1200
G1 E-0.400 F2400  ; retract (label)
G1 X69.000 Y110.500 F7200
G1 E0.400 F2400  ; unretract (label)
G1 X72.000 Y110.500 E0.1372 F1200
G1 X72.000 Y114.500 E0.1829 F1200
G1 X69.000 Y114.500 E0.1372 F1200
G1 X69.000 Y110.500 E0.1829 F1200
G1 E-0.400 F2400  ; retract (label)
G1 X76.000 Y114.500 F7200
G1 E0.400 F2400  ; unretract (label)
G1 X73.000 Y114.500 E0.1372 F1200
G1 X73.000 Y112.500 E0.0915 F1200
G1 X76.000 Y112.500 E0.1372 F1200
G1 X76.000 Y110.500 E0.0915 F1200
G1 X73.000 Y110.500 E0.1372 F1200
G1 E-0.400 F2400  ; retract (label)
G1 X80.000 Y114.500 F7200
G1 E0.400 F2400  ; unretract (label)
G1 X77.000 Y114.500 E0.1372 F1200
G1 X77.000 Y112.500 E0.0915 F1200
G1 X80.000 Y112.500 E0.1372 F1200
G1 X80.000 Y110.500 E0.0915 F1200
G1 X77.000 Y110.500 E0.1372 F1200
G1 E-0.400 F2400  ; retract (label)
M900 K0.0550  ; row 20  layer 1
G1 X85.000 Y112.500 F7200
G1 E0.400 F2400  ; unretract
G1 X110.000 E1.1433 F1200
G1 X140.000 E1.3720 F6000
G1 X165.000 E1.1433 F1200
G1 E-0.400 F2400  ; retract
M900 K0.0560  ; row 21  layer 1
G1 X85.000 Y115.500 F7200
G1 E0.400 F2400  ; unretract
G1 X110.000 E1.1433 F1200
G1 X140.000 E1.3720 F6000
G1 X165.000 E1.1433 F1200
G1 E-0.400 F2400  ; retract
M900 K0.0570  ; row 22  layer 1
G1 X85.000 Y118.500 F7200
G1 E0.400 F2400  ; unretract
G1 X110.000 E1.1433 F1200
G1 X140.000 E1.3720 F6000
G1 X165.000 E1.1433 F1200
G1 E-0.400 F2400  ; retract
M900 K0.0580  ; row 23  layer 1
G1 X85.000 Y121.500 F7200
G1 E0.400 F2400  ; unretract
G1 X110.000 E1.1433 F1200
G1 X140.000 E1.3720 F6000
G1 X165.000 E1.1433 F1200
G1 E-0.400 F2400  ; retract
M900 K0.0590  ; row 24  layer 1
G1 X85.000 Y124.500 F7200
G1 E0.400 F2400  ; unretract
G1 X110.000 E1.1433 F1200
G1 X140.000 E1.3720 F6000
G1 X165.000 E1.1433 F1200
G1 E-0.400 F2400  ; retract
; label 0.060 (K=0.0600) row 25
G1 X61.000 Y125.500 F7200
G1 E0.400 F2400  ; unretract (label)
G1 X64.000 Y125.500 E0.1372 F1200
G1 X64.000 Y129.500 E0.1829 F1200
G1 X61.000 Y129.500 E0.1372 F1200
G1 X61.000 Y125.500 E0.1829 F1200
G1 E-0.400 F2400  ; retract (label)
G1 X65.750 Y125.500 F7200
G1 E0.400 F2400  ; unretract (label)
G1 X67.250 Y125.500 E0.0686 F1200
G1 E-0.400 F2400  ; retract (label)
G1 X69.000 Y125.500 F7200
G1 E0.400 F2400  ; unretract (label)
G1 X72.000 Y125.500 E0.1372 F1200
G1 X72.000 Y129.500 E0.1829 F1200
G1 X69.000 Y129.500 E0.1372 F1200
G1 X69.000 Y125.500 E0.1829 F1200
G1 E-0.400 F2400  ; retract (label)
G1 X76.000 Y129.500 F7200
G1 E0.400 F2400  ; unretract (label)
G1 X73.000 Y129.500 E0.1372 F1200
G1 X73.000 Y125.500 E0.1829 F1200
G1 X76.000 Y125.500 E0.1372 F1200
G1 X76.000 Y127.500 E0.0915 F1200
G1 X73.000 Y127.500 E0.1372 F1200
G1 E-0.400 F2400  ; retract (label)
G1 X77.000 Y125.500 F7200
G1 E0.400 F2400  ; unretract (label)
G1 X80.000 Y125.500 E0.1372 F1200
G1 X80.000 Y129.500 E0.1829 F1200
G1 X77.000 Y129.500 E0.1372 F1200
G1 X77.000 Y125.500 E0.1829 F1200
G1 E-0.400 F2400  ; retract (label)
M900 K0.0600  ; row 25  layer 1
G1 X85.000 Y127.500 F7200
G1 E0.400 F2400  ; unretract
G1 X110.000 E1.1433 F1200
G1 X140.000 E1.3720 F6000
G1 X165.000 E1.1433 F1200
G1 E-0.400 F2400  ; retract
M900 K0.0610  ; row 26  layer 1
G1 X85.000 Y130.500 F7200
G1 E0.400 F2400  ; unretract
G1 X110.000 E1.1433 F1200
G1 X140.000 E1.3720 F6000
G1 X165.000 E1.1433 F1200
G1 E-0.400 F2400  ; retract
M900 K0.0620  ; row 27  layer 1
G1 X85.000 Y133.500 F7200
G1 E0.400 F2400  ; unretract
G1 X110.000 E1.1433 F1200
G1 X140.000 E1.3720 F6000
G1 X165.000 E1.1433 F1200
G1 E-0.400 F2400  ; retract
M900 K0.0630  ; row 28  layer 1
G1 X85.000 Y136.500 F7200
G1 E0.400 F2400  ; unretract
G1 X110.000 E1.1433 F1200
G1 X140.000 E1.3720 F6000
G1 X165.000 E1.1433 F1200
G1 E-0.400 F2400  ; retract
M900 K0.0640  ; row 29  layer 1
G1 X85.000 Y139.500 F7200
G1 E0.400 F2400  ; unretract
G1 X110.000 E1.1433 F1200
G1 X140.000 E1.3720 F6000
G1 X165.000 E1.1433 F1200
G1 E-0.400 F2400  ; retract
; label 0.065 (K=0.0650) row 30
G1 X61.000 Y140.500 F7200
G1 E0.400 F2400  ; unretract (label)
G1 X64.000 Y140.500 E0.1372 F1200
G1 X64.000 Y144.500 E0.1829 F1200
G1 X61.000 Y144.500 E0.1372 F1200
G1 X61.000 Y140.500 E0.1829 F1200
G1 E-0.400 F2400  ; retract (label)
G1 X65.750 Y140.500 F7200
G1 E0.400 F2400  ; unretract (label)
G1 X67.250 Y140.500 E0.0686 F1200
G1 E-0.400 F2400  ; retract (label)
G1 X69.000 Y140.500 F7200
G1 E0.400 F2400  ; unretract (label)
G1 X72.000 Y140.500 E0.1372 F1200
G1 X72.000 Y144.500 E0.1829 F1200
G1 X69.000 Y144.500 E0.1372 F1200
G1 X69.000 Y140.500 E0.1829 F1200
G1 E-0.400 F2400  ; retract (label)
G1 X76.000 Y144.500 F7200
G1 E0.400 F2400  ; unretract (label)
G1 X73.000 Y144.500 E0.1372 F1200
G1 X73.000 Y140.500 E0.1829 F1200
G1 X76.000 Y140.500 E0.1372 F1200
G1 X76.000 Y142.500 E0.0915 F1200
G1 X73.000 Y142.500 E0.1372 F1200
G1 E-0.400 F2400  ; retract (label)
G1 X80.000 Y144.500 F7200
G1 E0.400 F2400  ; unretract (label)
G1 X77.000 Y144.500 E0.1372 F1200
G1 X77.000 Y142.500 E0.0915 F1200
G1 X80.000 Y142.500 E0.1372 F1200
G1 X80.000 Y140.500 E0.0915 F1200
G1 X77.000 Y140.500 E0.1372 F1200
G1 E-0.400 F2400  ; retract (label)
M900 K0.0650  ; row 30  layer 1
G1 X85.000 Y142.500 F7200
G1 E0.400 F2400  ; unretract
G1 X110.000 E1.1433 F1200
G1 X140.000 E1.3720 F6000
G1 X165.000 E1.1433 F1200
G1 E-0.400 F2400  ; retract
M900 K0.0660  ; row 31  layer 1
G1 X85.000 Y145.500 F7200
G1 E0.400 F2400  ; unretract
G1 X110.000 E1.1433 F1200
G1 X140.000 E1.3720 F6000
G1 X165.000 E1.1433 F1200
G1 E-0.400 F2400  ; retract
M900 K0.0670  ; row 32  layer 1
G1 X85.000 Y148.500 F7200
G1 E0.400 F2400  ; unretract
G1 X110.000 E1.1433 F1200
G1 X140.000 E1.3720 F6000
G1 X165.000 E1.1433 F1200
G1 E-0.400 F2400  ; retract
M900 K0.0680  ; row 33  layer 1
G1 X85.000 Y151.500 F7200
G1 E0.400 F2400  ; unretract
G1 X110.000 E1.1433 F1200
G1 X140.000 E1.3720 F6000
G1 X165.000 E1.1433 F1200
G1 E-0.400 F2400  ; retract
M900 K0.0690  ; row 34  layer 1
G1 X85.000 Y154.500 F7200
G1 E0.400 F2400  ; unretract
G1 X110.000 E1.1433 F1200
G1 X140.000 E1.3720 F6000
G1 X165.000 E1.1433 F1200
G1 E-0.400 F2400  ; retract
; label 0.070 (K=0.0700) row 35
G1 X61.000 Y155.500 F7200
G1 E0.400 F2400  ; unretract (label)
G1 X64.000 Y155.500 E0.1372 F1200
G1 X64.000 Y159.500 E0.1829 F1200
G1 X61.000 Y159.500 E0.1372 F1200
G1 X61.000 Y155.500 E0.1829 F1200
G1 E-0.400 F2400  ; retract (label)
G1 X65.750 Y155.500 F7200
G1 E0.400 F2400  ; unretract (label)
G1 X67.250 Y155.500 E0.0686 F1200
G1 E-0.400 F2400  ; retract (label)
G1 X69.000 Y155.500 F7200
G1 E0.400 F2400  ; unretract (label)
G1 X72.000 Y155.500 E0.1372 F1200
G1 X72.000 Y159.500 E0.1829 F1200
G1 X69.000 Y159.500 E0.1372 F1200
G1 X69.000 Y155.500 E0.1829 F1200
G1 E-0.400 F2400  ; retract (label)
G1 X73.000 Y159.500 F7200
G1 E0.400 F2400  ; unretract (label)
G1 X76.000 Y159.500 E0.1372 F1200
G1 X76.000 Y155.500 E0.1829 F1200
G1 E-0.400 F2400  ; retract (label)
G1 X77.000 Y155.500 F7200
G1 E0.400 F2400  ; unretract (label)
G1 X80.000 Y155.500 E0.1372 F1200
G1 X80.000 Y159.500 E0.1829 F1200
G1 X77.000 Y159.500 E0.1372 F1200
G1 X77.000 Y155.500 E0.1829 F1200
G1 E-0.400 F2400  ; retract (label)
M900 K0.0700  ; row 35  layer 1
G1 X85.000 Y157.500 F7200
G1 E0.400 F2400  ; unretract
G1 X110.000 E1.1433 F1200
G1 X140.000 E1.3720 F6000
G1 X165.000 E1.1433 F1200
G1 E-0.400 F2400  ; retract
; --- Layer 2 / 3  (Z=0.400) ---
G1 Z0.400 F600
M900 K0.0700  ; row 35  layer 2
G1 X165.000 Y157.500 F7200
G1 E0.400 F2400  ; unretract
G1 X140.000 E1.1433 F1200
G1 X110.000 E1.3720 F6000
G1 X85.000 E1.1433 F1200
G1 E-0.400 F2400  ; retract
M900 K0.0690  ; row 34  layer 2
G1 X165.000 Y154.500 F7200
G1 E0.400 F2400  ; unretract
G1 X140.000 E1.1433 F1200
G1 X110.000 E1.3720 F6000
G1 X85.000 E1.1433 F1200
G1 E-0.400 F2400  ; retract
M900 K0.0680  ; row 33  layer 2
G1 X165.000 Y151.500 F7200
G1 E0.400 F2400  ; unretract
G1 X140.000 E1.1433 F1200
G1 X110.000 E1.3720 F6000
G1 X85.000 E1.1433 F1200
G1 E-0.400 F2400  ; retract
M900 K0.0670  ; row 32  layer 2
G1 X165.000 Y148.500 F7200
G1 E0.400 F2400  ; unretract
G1 X140.000 E1.1433 F1200
G1 X110.000 E1.3720 F6000
G1 X85.000 E1.1433 F1200
G1 E-0.400 F2400  ; retract
M900 K0.0660  ; row 31  layer 2
G1 X165.000 Y145.500 F7200
G1 E0.400 F2400  ; unretract
G1 X140.000 E1.1433 F1200
G1 X110.000 E1.3720 F6000
G1 X85.000 E1.1433 F1200
G1 E-0.400 F2400  ; retract
M900 K0.0650  ; row 30  layer 2
G1 X165.000 Y142.500 F7200
G1 E0.400 F2400  ; unretract
G1 X140.000 E1.1433 F1200
G1 X110.000 E1.3720 F6000
G1 X85.000 E1.1433 F1200
G1 E-0.400 F2400  ; retract
M900 K0.0640  ; row 29  layer 2
G1 X165.000 Y139.500 F7200
G1 E0.400 F2400  ; unretract
G1 X140.000 E1.1433 F1200
G1 X110.000 E1.3720 F6000
G1 X85.000 E1.1433 F1200
G1 E-0.400 F2400  ; retract
M900 K0.0630  ; row 28  layer 2
G1 X165.000 Y136.500 F7200
G1 E0.400 F2400  ; unretract
G1 X140.000 E1.1433 F1200
G1 X110.000 E1.3720 F6000
G1 X85.000 E1.1433 F1200
G1 E-0.400 F2400  ; retract
M900 K0.0620  ; row 27  layer 2
G1 X165.000 Y133.500 F7200
G1 E0.400 F2400  ; unretract
G1 X140.000 E1.1433 F1200
G1 X110.000 E1.3720 F6000
G1 X85.000 E1.1433 F1200
G1 E-0.400 F2400  ; retract
M900 K0.0610  ; row 26  layer 2
G1 X165.000 Y130.500 F7200
G1 E0.400 F2400  ; unretract
G1 X140.000 E1.1433 F1200
G1 X110.000 E1.3720 F6000
G1 X85.000 E1.1433 F1200
G1 E-0.400 F2400  ; retract
M900 K0.0600  ; row 25  layer 2
G1 X165.000 Y127.500 F7200
G1 E0.400 F2400  ; unretract
G1 X140.000 E1.1433 F1200
G1 X110.000 E1.3720 F6000
G1 X85.000 E1.1433 F1200
G1 E-0.400 F2400  ; retract
M900 K0.0590  ; row 24  layer 2
G1 X165.000 Y124.500 F7200
G1 E0.400 F2400  ; unretract
G1 X140.000 E1.1433 F1200
G1 X110.000 E1.3720 F6000
G1 X85.000 E1.1433 F1200
G1 E-0.400 F2400  ; retract
M900 K0.0580  ; row 23  layer 2
G1 X165.000 Y121.500 F7200
G1 E0.400 F2400  ; unretract
G1 X140.000 E1.1433 F1200
G1 X110.000 E1.3720 F6000
G1 X85.000 E1.1433 F1200
G1 E-0.400 F2400  ; retract
M900 K0.0570  ; row 22  layer 2
G1 X165.000 Y118.500 F7200
G1 E0.400 F2400  ; unretract
G1 X140.000 E1.1433 F1200
G1 X110.000 E1.3720 F6000
G1 X85.000 E1.1433 F1200
G1 E-0.400 F2400  ; retract
M900 K0.0560  ; row 21  layer 2
G1 X165.000 Y115.500 F7200
G1 E0.400 F2400  ; unretract
G1 X140.000 E1.1433 F1200
G1 X110.000 E1.3720 F6000
G1 X85.000 E1.1433 F1200
G1 E-0.400 F2400  ; retract
M900 K0.0550  ; row 20  layer 2
G1 X165.000 Y112.500 F7200
G1 E0.400 F2400  ; unretract
G1 X140.000 E1.1433 F1200
G1 X110.000 E1.3720 F6000
G1 X85.000 E1.1433 F1200
G1 E-0.400 F2400  ; retract
M900 K0.0540  ; row 19  layer 2
G1 X165.000 Y109.500 F7200
G1 E0.400 F2400  ; unretract
G1 X140.000 E1.1433 F1200
G1 X110.000 E1.3720 F6000
G1 X85.000 E1.1433 F1200
G1 E-0.400 F2400  ; retract
M900 K0.0530  ; row 18  layer 2
G1 X165.000 Y106.500 F7200
G1 E0.400 F2400  ; unretract
G1 X140.000 E1.1433 F1200
G1 X110.000 E1.3720 F6000
G1 X85.000 E1.1433 F1200
G1 E-0.400 F2400  ; retract
M900 K0.0520  ; row 17  layer 2
G1 X165.000 Y103.500 F7200
G1 E0.400 F2400  ; unretract
G1 X140.000 E1.1433 F1200
G1 X110.000 E1.3720 F6000
G1 X85.000 E1.1433 F1200
G1 E-0.400 F2400  ; retract
M900 K0.0510  ; row 16  layer 2
G1 X165.000 Y100.500 F7200
G1 E0.400 F2400  ; unretract
G1 X140.000 E1.1433 F1200
G1 X110.000 E1.3720 F6000
G1 X85.000 E1.1433 F1200
G1 E-0.400 F2400  ; retract
M900 K0.0500  ; row 15  layer 2
G1 X165.000 Y97.500 F7200
G1 E0.400 F2400  ; unretract
G1 X140.000 E1.1433 F1200
G1 X110.000 E1.3720 F6000
G1 X85.000 E1.1433 F1200
G1 E-0.400 F2400  ; retract
M900 K0.0490  ; row 14  layer 2
G1 X165.000 Y94.500 F7200
G1 E0.400 F2400  ; unretract
G1 X140.000 E1.1433 F1200
G1 X110.000 E1.3720 F6000
G1 X85.000 E1.1433 F1200
G1 E-0.400 F2400  ; retract
M900 K0.0480  ; row 13  layer 2
G1 X165.000 Y91.500 F7200
G1 E0.400 F2400  ; unretract
G1 X140.000 E1.1433 F1200
G1 X110.000 E1.3720 F6000
G1 X85.000 E1.1433 F1200
G1 E-0.400 F2400  ; retract
M900 K0.0470  ; row 12  layer 2
G1 X165.000 Y88.500 F7200
G1 E0.400 F2400  ; unretract
G1 X140.000 E1.1433 F1200
G1 X110.000 E1.3720 F6000
G1 X85.000 E1.1433 F1200
G1 E-0.400 F2400  ; retract
M900 K0.0460  ; row 11  layer 2
G1 X165.000 Y85.500 F7200
G1 E0.400 F2400  ; unretract
G1 X140.000 E1.1433 F1200
G1 X110.000 E1.3720 F6000
G1 X85.000 E1.1433 F1200
G1 E-0.400 F2400  ; retract
M900 K0.0450  ; row 10  layer 2
G1 X165.000 Y82.500 F7200
G1 E0.400 F2400  ; unretract
G1 X140.000 E1.1433 F1200
G1 X110.000 E1.3720 F6000
G1 X85.000 E1.1433 F1200
G1 E-0.400 F2400  ; retract
M900 K0.0440  ; row 9  layer 2
G1 X165.000 Y79.500 F7200
G1 E0.400 F2400  ; unretract
G1 X140.000 E1.1433 F1200
G1 X110.000 E1.3720 F6000
G1 X85.000 E1.1433 F1200
G1 E-0.400 F2400  ; retract
M900 K0.0430  ; row 8  layer 2
G1 X165.000 Y76.500 F7200
G1 E0.400 F2400  ; unretract
G1 X140.000 E1.1433 F1200
G1 X110.000 E1.3720 F6000
G1 X85.000 E1.1433 F1200
G1 E-0.400 F2400  ; retract
M900 K0.0420  ; row 7  layer 2
G1 X165.000 Y73.500 F7200
G1 E0.400 F2400  ; unretract
G1 X140.000 E1.1433 F1200
G1 X110.000 E1.3720 F6000
G1 X85.000 E1.1433 F1200
G1 E-0.400 F2400  ; retract
M900 K0.0410  ; row 6  layer 2
G1 X165.000 Y70.500 F7200
G1 E0.400 F2400  ; unretract
G1 X140.000 E1.1433 F1200
G1 X110.000 E1.3720 F6000
G1 X85.000 E1.1433 F1200
G1 E-0.400 F2400  ; retract
M900 K0.0400  ; row 5  layer 2
G1 X165.000 Y67.500 F7200
G1 E0.400 F2400  ; unretract
G1 X140.000 E1.1433 F1200
G1 X110.000 E1.3720 F6000
G1 X85.000 E1.1433 F1200
G1 E-0.400 F2400  ; retract
M900 K0.0390  ; row 4  layer 2
G1 X165.000 Y64.500 F7200
G1 E0.400 F2400  ; unretract
G1 X140.000 E1.1433 F1200
G1 X110.000 E1.3720 F6000
G1 X85.000 E1.1433 F1200
G1 E-0.400 F2400  ; retract
M900 K0.0380  ; row 3  layer 2
G1 X165.000 Y61.500 F7200
G1 E0.400 F2400  ; unretract
G1 X140.000 E1.1433 F1200
G1 X110.000 E1.3720 F6000
G1 X85.000 E1.1433 F1200
G1 E-0.400 F2400  ; retract
M900 K0.0370  ; row 2  layer 2
G1 X165.000 Y58.500 F7200
G1 E0.400 F2400  ; unretract
G1 X140.000 E1.1433 F1200
G1 X110.000 E1.3720 F6000
G1 X85.000 E1.1433 F1200
G1 E-0.400 F2400  ; retract
M900 K0.0360  ; row 1  layer 2
G1 X165.000 Y55.500 F7200
G1 E0.400 F2400  ; unretract
G1 X140.000 E1.1433 F1200
G1 X110.000 E1.3720 F6000
G1 X85.000 E1.1433 F1200
G1 E-0.400 F2400  ; retract
M900 K0.0350  ; row 0  layer 2
G1 X165.000 Y52.500 F7200
G1 E0.400 F2400  ; unretract
G1 X140.000 E1.1433 F1200
G1 X110.000 E1.3720 F6000
G1 X85.000 E1.1433 F1200
G1 E-0.400 F2400  ; retract
; --- Layer 3 / 3  (Z=0.600) ---
G1 Z0.600 F600
M900 K0.0350  ; row 0  layer 3
G1 X85.000 Y52.500 F7200
G1 E0.400 F2400  ; unretract
G1 X110.000 E1.1433 F1200
G1 X140.000 E1.3720 F6000
G1 X165.000 E1.1433 F1200
G1 E-0.400 F2400  ; retract
M900 K0.0360  ; row 1  layer 3
G1 X85.000 Y55.500 F7200
G1 E0.400 F2400  ; unretract
G1 X110.000 E1.1433 F1200
G1 X140.000 E1.3720 F6000
G1 X165.000 E1.1433 F1200
G1 E-0.400 F2400  ; retract
M900 K0.0370  ; row 2  layer 3
G1 X85.000 Y58.500 F7200
G1 E0.400 F2400  ; unretract
G1 X110.000 E1.1433 F1200
G1 X140.000 E1.3720 F6000
G1 X165.000 E1.1433 F1200
G1 E-0.400 F2400  ; retract
M900 K0.0380  ; row 3  layer 3
G1 X85.000 Y61.500 F7200
G1 E0.400 F2400  ; unretract
G1 X110.000 E1.1433 F1200
G1 X140.000 E1.3720 F6000
G1 X165.000 E1.1433 F1200
G1 E-0.400 F2400  ; retract
M900 K0.0390  ; row 4  layer 3
G1 X85.000 Y64.500 F7200
G1 E0.400 F2400  ; unretract
G1 X110.000 E1.1433 F1200
G1 X140.000 E1.3720 F6000
G1 X165.000 E1.1433 F1200
G1 E-0.400 F2400  ; retract
M900 K0.0400  ; row 5  layer 3
G1 X85.000 Y67.500 F7200
G1 E0.400 F2400  ; unretract
G1 X110.000 E1.1433 F1200
G1 X140.000 E1.3720 F6000
G1 X165.000 E1.1433 F1200
G1 E-0.400 F2400  ; retract
M900 K0.0410  ; row 6  layer 3
G1 X85.000 Y70.500 F7200
G1 E0.400 F2400  ; unretract
G1 X110.000 E1.1433 F1200
G1 X140.000 E1.3720 F6000
G1 X165.000 E1.1433 F1200
G1 E-0.400 F2400  ; retract
M900 K0.0420  ; row 7  layer 3
G1 X85.000 Y73.500 F7200
G1 E0.400 F2400  ; unretract
G1 X110.000 E1.1433 F1200
G1 X140.000 E1.3720 F6000
G1 X165.000 E1.1433 F1200
G1 E-0.400 F2400  ; retract
M900 K0.0430  ; row 8  layer 3
G1 X85.000 Y76.500 F7200
G1 E0.400 F2400  ; unretract
G1 X110.000 E1.1433 F1200
G1 X140.000 E1.3720 F6000
G1 X165.000 E1.1433 F1200
G1 E-0.400 F2400  ; retract
M900 K0.0440  ; row 9  layer 3
G1 X85.000 Y79.500 F7200
G1 E0.400 F2400  ; unretract
G1 X110.000 E1.1433 F1200
G1 X140.000 E1.3720 F6000
G1 X165.000 E1.1433 F1200
G1 E-0.400 F2400  ; retract
M900 K0.0450  ; row 10  layer 3
G1 X85.000 Y82.500 F7200
G1 E0.400 F2400  ; unretract
G1 X110.000 E1.1433 F1200
G1 X140.000 E1.3720 F6000
G1 X165.000 E1.1433 F1200
G1 E-0.400 F2400  ; retract
M900 K0.0460  ; row 11  layer 3
G1 X85.000 Y85.500 F7200
G1 E0.400 F2400  ; unretract
G1 X110.000 E1.1433 F1200
G1 X140.000 E1.3720 F6000
G1 X165.000 E1.1433 F1200
G1 E-0.400 F2400  ; retract
M900 K0.0470  ; row 12  layer 3
G1 X85.000 Y88.500 F7200
G1 E0.400 F2400  ; unretract
G1 X110.000 E1.1433 F1200
G1 X140.000 E1.3720 F6000
G1 X165.000 E1.1433 F1200
G1 E-0.400 F2400  ; retract
M900 K0.0480  ; row 13  layer 3
G1 X85.000 Y91.500 F7200
G1 E0.400 F2400  ; unretract
G1 X110.000 E1.1433 F1200
G1 X140.000 E1.3720 F6000
G1 X165.000 E1.1433 F1200
G1 E-0.400 F2400  ; retract
M900 K0.0490  ; row 14  layer 3
G1 X85.000 Y94.500 F7200
G1 E0.400 F2400  ; unretract
G1 X110.000 E1.1433 F1200
G1 X140.000 E1.3720 F6000
G1 X165.000 E1.1433 F1200
G1 E-0.400 F2400  ; retract
M900 K0.0500  ; row 15  layer 3
G1 X85.000 Y97.500 F7200
G1 E0.400 F2400  ; unretract
G1 X110.000 E1.1433 F1200
G1 X140.000 E1.3720 F6000
G1 X165.000 E1.1433 F1200
G1 E-0.400 F2400  ; retract
M900 K0.0510  ; row 16  layer 3
G1 X85.000 Y100.500 F7200
G1 E0.400 F2400  ; unretract
G1 X110.000 E1.1433 F1200
G1 X140.000 E1.3720 F6000
G1 X165.000 E1.1433 F1200
G1 E-0.400 F2400  ; retract
M900 K0.0520  ; row 17  layer 3
G1 X85.000 Y103.500 F7200
G1 E0.400 F2400  ; unretract
G1 X110.000 E1.1433 F1200
G1 X140.000 E1.3720 F6000
G1 X165.000 E1.1433 F1200
G1 E-0.400 F2400  ; retract
M900 K0.0530  ; row 18  layer 3
G1 X85.000 Y106.500 F7200
G1 E0.400 F2400  ; unretract
G1 X110.000 E1.1433 F1200
G1 X140.000 E1.3720 F6000
G1 X165.000 E1.1433 F1200
G1 E-0.400 F2400  ; retract
M900 K0.0540  ; row 19  layer 3
G1 X85.000 Y109.500 F7200
G1 E0.400 F2400  ; unretract
G1 X110.000 E1.1433 F1200
G1 X140.000 E1.3720 F6000
G1 X165.000 E1.1433 F1200
G1 E-0.400 F2400  ; retract
M900 K0.0550  ; row 20  layer 3
G1 X85.000 Y112.500 F7200
G1 E0.400 F2400  ; unretract
G1 X110.000 E1.1433 F1200
G1 X140.000 E1.3720 F6000
G1 X165.000 E1.1433 F1200
G1 E-0.400 F2400  ; retract
M900 K0.0560  ; row 21  layer 3
G1 X85.000 Y115.500 F7200
G1 E0.400 F2400  ; unretract
G1 X110.000 E1.1433 F1200
G1 X140.000 E1.3720 F6000
G1 X165.000 E1.1433 F1200
G1 E-0.400 F2400  ; retract
M900 K0.0570  ; row 22  layer 3
G1 X85.000 Y118.500 F7200
G1 E0.400 F2400  ; unretract
G1 X110.000 E1.1433 F1200
G1 X140.000 E1.3720 F6000
G1 X165.000 E1.1433 F1200
G1 E-0.400 F2400  ; retract
M900 K0.0580  ; row 23  layer 3
G1 X85.000 Y121.500 F7200
G1 E0.400 F2400  ; unretract
G1 X110.000 E1.1433 F1200
G1 X140.000 E1.3720 F6000
G1 X165.000 E1.1433 F1200
G1 E-0.400 F2400  ; retract
M900 K0.0590  ; row 24  layer 3
G1 X85.000 Y124.500 F7200
G1 E0.400 F2400  ; unretract
G1 X110.000 E1.1433 F1200
G1 X140.000 E1.3720 F6000
G1 X165.000 E1.1433 F1200
G1 E-0.400 F2400  ; retract
M900 K0.0600  ; row 25  layer 3
G1 X85.000 Y127.500 F7200
G1 E0.400 F2400  ; unretract
G1 X110.000 E1.1433 F1200
G1 X140.000 E1.3720 F6000
G1 X165.000 E1.1433 F1200
G1 E-0.400 F2400  ; retract
M900 K0.0610  ; row 26  layer 3
G1 X85.000 Y130.500 F7200
G1 E0.400 F2400  ; unretract
G1 X110.000 E1.1433 F1200
G1 X140.000 E1.3720 F6000
G1 X165.000 E1.1433 F1200
G1 E-0.400 F2400  ; retract
M900 K0.0620  ; row 27  layer 3
G1 X85.000 Y133.500 F7200
G1 E0.400 F2400  ; unretract
G1 X110.000 E1.1433 F1200
G1 X140.000 E1.3720 F6000
G1 X165.000 E1.1433 F1200
G1 E-0.400 F2400  ; retract
M900 K0.0630  ; row 28  layer 3
G1 X85.000 Y136.500 F7200
G1 E0.400 F2400  ; unretract
G1 X110.000 E1.1433 F1200
G1 X140.000 E1.3720 F6000
G1 X165.000 E1.1433 F1200
G1 E-0.400 F2400  ; retract
M900 K0.0640  ; row 29  layer 3
G1 X85.000 Y139.500 F7200
G1 E0.400 F2400  ; unretract
G1 X110.000 E1.1433 F1200
G1 X140.000 E1.3720 F6000
G1 X165.000 E1.1433 F1200
G1 E-0.400 F2400  ; retract
M900 K0.0650  ; row 30  layer 3
G1 X85.000 Y142.500 F7200
G1 E0.400 F2400  ; unretract
G1 X110.000 E1.1433 F1200
G1 X140.000 E1.3720 F6000
G1 X165.000 E1.1433 F1200
G1 E-0.400 F2400  ; retract
M900 K0.0660  ; row 31  layer 3
G1 X85.000 Y145.500 F7200
G1 E0.400 F2400  ; unretract
G1 X110.000 E1.1433 F1200
G1 X140.000 E1.3720 F6000
G1 X165.000 E1.1433 F1200
G1 E-0.400 F2400  ; retract
M900 K0.0670  ; row 32  layer 3
G1 X85.000 Y148.500 F7200
G1 E0.400 F2400  ; unretract
G1 X110.000 E1.1433 F1200
G1 X140.000 E1.3720 F6000
G1 X165.000 E1.1433 F1200
G1 E-0.400 F2400  ; retract
M900 K0.0680  ; row 33  layer 3
G1 X85.000 Y151.500 F7200
G1 E0.400 F2400  ; unretract
G1 X110.000 E1.1433 F1200
G1 X140.000 E1.3720 F6000
G1 X165.000 E1.1433 F1200
G1 E-0.400 F2400  ; retract
M900 K0.0690  ; row 34  layer 3
G1 X85.000 Y154.500 F7200
G1 E0.400 F2400  ; unretract
G1 X110.000 E1.1433 F1200
G1 X140.000 E1.3720 F6000
G1 X165.000 E1.1433 F1200
G1 E-0.400 F2400  ; retract
M900 K0.0700  ; row 35  layer 3
G1 X85.000 Y157.500 F7200
G1 E0.400 F2400  ; unretract
G1 X110.000 E1.1433 F1200
G1 X140.000 E1.3720 F6000
G1 X165.000 E1.1433 F1200
G1 E-0.400 F2400  ; retract
; --- End sequence ---
G1 Z30.00 F600  ; lift
G1 X10 Y200 F6000    ; park near front
M104 S0              ; hotend off
M140 S0              ; bed off
M107                 ; fan off
M84                  ; steppers off
M900 K0.0000  ; restore linear-advance K-factor
